; filename = temp.3w
; print_time = 1056
; machine = daVinciF20
; filamentid = 41,41
; total_filament = 927.88
; extruder_filament = [extruder0_filament]:[extruder1_filament]
; dimension = 49.53:47.84:5.00
; extruder = 1
G90
M82
M106 S0
M140 S90
M190 S90
M104 S230 T0
M104 S0 T1
M109 S230 T0
T0 ; Switch to right extruder
G1 X-37 Y0 Z3 F3600 ; Position to purge right nozzle
G92 E0 ; Zero extruder
G1 E30 F100 ; Purge right nozzle
G1 Y30 F3600 ; Wipe in bin 3X
G1 Y0
G1 Y30
G1 Y0
G1 Y40
T0
G92 E0.0000
G1 E-2.0000 F1800
G1 Z2.010 F2400
G1 X46.505 Y71.479 F3600
G1 E0.0000 F1800
G92 E0.0000
G1 X101.670 Y71.479 E4.1283 F900
G1 X104.365 Y74.173 E4.4135
G1 X104.365 Y86.195 E5.3131
G1 X103.770 Y86.789 E5.3761
G1 X104.365 Y87.384 E5.4390
G1 X104.365 Y99.405 E6.3386
G1 X103.770 Y100.000 E6.4015
G1 X104.365 Y100.595 E6.4645
G1 X104.365 Y112.616 E7.3641
G1 X103.770 Y113.211 E7.4270
G1 X104.365 Y113.805 E7.4900
G1 X104.365 Y125.827 E8.3896
G1 X101.670 Y128.521 E8.6748
G1 X92.860 Y128.521 E9.3341
G1 X90.449 Y126.110 E9.5893
G1 X88.038 Y128.521 E9.8444
G1 X79.227 Y128.521 E10.5038
G1 X76.816 Y126.110 E10.7589
G1 X74.405 Y128.521 E11.0141
G1 X65.595 Y128.521 E11.6734
G1 X63.184 Y126.110 E11.9286
G1 X60.773 Y128.521 E12.1837
G1 X51.962 Y128.521 E12.8431
G1 X49.267 Y125.827 E13.1283
G1 X49.267 Y120.311 E13.5410
G1 X49.243 Y120.302 E13.5429
G1 X44.964 Y118.410 E13.8931
G1 X46.505 Y111.111 E14.4514
G1 X49.267 Y111.111 E14.6581
G1 X49.267 Y107.101 E14.9582
G1 X49.243 Y107.091 E14.9602
G1 X44.964 Y105.199 E15.3103
G1 X46.505 Y97.900 E15.8686
G1 X49.267 Y97.900 E16.0753
G1 X49.267 Y93.890 E16.3754
G1 X49.243 Y93.880 E16.3774
G1 X44.963 Y91.988 E16.7276
G1 X46.505 Y84.689 E17.2858
G1 X49.267 Y84.689 E17.4925
G1 X49.267 Y80.679 E17.7926
G1 X49.243 Y80.670 E17.7946
G1 X44.964 Y78.778 E18.1448
G1 X46.505 Y71.479 E18.7030
G92 E0.0000
G1 E-2.0000 F1800
G1 X46.829 Y71.879 F3600
G1 E0.0000 F1800
G92 E0.0000
G1 X101.505 Y71.879 E4.0916 F900
G1 X103.965 Y74.339 E4.3520
G1 X103.965 Y86.029 E5.2269
G1 X103.205 Y86.789 E5.3073
G1 X103.965 Y87.550 E5.3878
G1 X103.965 Y99.240 E6.2626
G1 X103.205 Y100.000 E6.3431
G1 X103.965 Y100.760 E6.4235
G1 X103.965 Y112.450 E7.2984
G1 X103.205 Y113.211 E7.3788
G1 X103.965 Y113.971 E7.4593
G1 X103.965 Y125.661 E8.3341
G1 X101.505 Y128.121 E8.5945
G1 X93.025 Y128.121 E9.2291
G1 X90.565 Y125.661 E9.4894
G1 X90.565 Y120.035 E9.9105
G1 X90.443 Y119.992 E9.9201
G1 X90.332 Y119.947 E9.9291
G1 X90.332 Y125.661 E10.3566
G1 X87.872 Y128.121 E10.6170
G1 X79.393 Y128.121 E11.2516
G1 X76.932 Y125.661 E11.5120
G1 X76.932 Y120.035 E11.9330
G1 X76.811 Y119.992 E11.9427
G1 X76.700 Y119.947 E11.9516
G1 X76.700 Y125.661 E12.3792
G1 X74.240 Y128.121 E12.6395
G1 X65.760 Y128.121 E13.2741
G1 X63.300 Y125.661 E13.5345
G1 X63.300 Y120.035 E13.9555
G1 X63.178 Y119.992 E13.9652
G1 X63.067 Y119.947 E13.9741
G1 X63.067 Y125.661 E14.4017
G1 X60.607 Y128.121 E14.6621
G1 X52.128 Y128.121 E15.2966
G1 X49.667 Y125.661 E15.5570
G1 X49.667 Y120.035 E15.9781
G1 X49.546 Y119.992 E15.9877
G1 X49.398 Y119.933 E15.9996
G1 X45.422 Y118.175 E16.3250
G1 X46.829 Y111.511 E16.8347
G1 X49.667 Y111.511 E17.0471
G1 X49.667 Y106.824 E17.3978
G1 X49.546 Y106.781 E17.4074
G1 X49.398 Y106.722 E17.4193
G1 X45.422 Y104.964 E17.7447
G1 X46.829 Y98.300 E18.2544
G1 X49.667 Y98.300 E18.4668
G1 X49.667 Y93.613 E18.8175
G1 X49.546 Y93.570 E18.8272
G1 X49.398 Y93.512 E18.8391
G1 X45.422 Y91.754 E19.1644
G1 X46.829 Y85.089 E19.6741
G1 X49.667 Y85.089 E19.8865
G1 X49.667 Y80.403 E20.2373
G1 X49.546 Y80.360 E20.2469
G1 X49.398 Y80.301 E20.2588
G1 X45.422 Y78.543 E20.5842
G1 X46.829 Y71.879 E21.0939
G92 E0.0000
G1 E-2.0000 F1800
G1 X51.203 Y76.279 F3600
G1 E0.0000 F1800
G92 E0.0000
G1 X57.667 Y76.279 E0.4837 F630
G1 X57.665 Y76.768 E0.5203
G1 X56.924 Y76.906 E0.5767
G1 X56.082 Y77.002 E0.6402
G1 X55.235 Y77.034 E0.7036
G1 X54.388 Y77.002 E0.7670
G1 X53.546 Y76.906 E0.8304
G1 X52.714 Y76.746 E0.8938
G1 X51.896 Y76.525 E0.9572
G1 X51.203 Y76.279 E1.0123
G1 X54.447 Y76.619 F3600
G92 E0.0000
G1 X54.494 Y76.666 E0.0050 F900
G1 X55.082 Y76.688 E0.0490
G1 X55.013 Y76.619 E0.0563
G1 X55.579 Y76.619 E0.0986
G1 X55.638 Y76.678 E0.1049
G1 X56.056 Y76.663 E0.1362
G1 X56.175 Y76.649 E0.1451
G1 X56.144 Y76.619 E0.1484
G92 E0.0000
G1 E-2.0000 F1800
G1 X54.467 Y79.889 F3600
G1 E0.0000 F1800
G92 E0.0000
G1 X58.267 Y79.889 E0.2844 F765
G1 X58.267 Y83.689 E0.5687
G1 X54.467 Y83.689 E0.8531
G1 X54.467 Y79.889 E1.1375
G1 X54.067 Y79.489 F3600
G92 E0.0000
G1 X58.067 Y79.489 E0.2993 F630
G1 X58.067 Y76.279 E0.5396
G1 X58.667 Y76.279 E0.5845
G1 X58.667 Y84.089 E1.1690
G1 X54.067 Y84.089 E1.5133
G1 X54.067 Y79.489 E1.8575
G1 X57.492 Y80.229 F3600
G92 E0.0000
G1 X57.927 Y80.665 E0.0461 F720
G1 X57.927 Y81.230 E0.0884
G1 X56.926 Y80.229 E0.1944
G1 X56.361 Y80.229 E0.2367
G1 X57.927 Y81.796 E0.4025
G1 X57.927 Y82.362 E0.4448
G1 X55.795 Y80.229 E0.6705
G1 X55.229 Y80.229 E0.7128
G1 X57.927 Y82.927 E0.9984
G1 X57.927 Y83.349 E1.0300
G1 X57.784 Y83.349 E1.0407
G1 X54.807 Y80.373 E1.3557
G1 X54.807 Y80.939 E1.3980
G1 X57.218 Y83.349 E1.6532
G1 X56.652 Y83.349 E1.6955
G1 X54.807 Y81.505 E1.8907
G1 X54.807 Y82.070 E1.9331
G1 X56.087 Y83.349 E2.0684
G1 X55.521 Y83.349 E2.1108
G1 X54.807 Y82.636 E2.1863
G1 X54.807 Y83.202 E2.2286
G1 X54.955 Y83.349 E2.2443
G92 E0.0000
G1 E-2.0000 F1800
G1 X54.467 Y93.100 F3600
G1 E0.0000 F1800
G92 E0.0000
G1 X58.267 Y93.100 E0.2844 F765
G1 X58.267 Y96.900 E0.5687
G1 X54.467 Y96.900 E0.8531
G1 X54.467 Y93.100 E1.1375
G1 X54.067 Y92.700 F3600
G92 E0.0000
G1 X58.067 Y92.700 E0.2993 F630
G1 X58.067 Y89.489 E0.5396
G1 X58.667 Y89.489 E0.5845
G1 X58.667 Y97.300 E1.1690
G1 X54.067 Y97.300 E1.5133
G1 X54.067 Y92.700 E1.8575
G1 X57.692 Y93.440 F3600
G92 E0.0000
G1 X57.927 Y93.675 E0.0249 F720
G1 X57.927 Y94.241 E0.0673
G1 X57.126 Y93.440 E0.1520
G1 X56.561 Y93.440 E0.1944
G1 X57.927 Y94.807 E0.3390
G1 X57.927 Y95.373 E0.3814
G1 X55.995 Y93.440 E0.5859
G1 X55.429 Y93.440 E0.6282
G1 X57.927 Y95.938 E0.8926
G1 X57.927 Y96.504 E0.9350
G1 X54.864 Y93.440 E1.2592
G1 X54.807 Y93.440 E1.2634
G1 X54.807 Y93.950 E1.3016
G1 X57.418 Y96.560 E1.5778
G1 X56.852 Y96.560 E1.6202
G1 X54.807 Y94.515 E1.8366
G1 X54.807 Y95.081 E1.8789
G1 X56.287 Y96.560 E2.0354
G1 X55.721 Y96.560 E2.0778
G1 X54.807 Y95.647 E2.1744
G1 X54.807 Y96.212 E2.2167
G1 X55.155 Y96.560 E2.2535
G92 E0.0000
G1 E-2.0000 F1800
G1 X55.235 Y90.244 F3600
G1 E0.0000 F1800
G92 E0.0000
G1 X54.388 Y90.212 E0.0634 F630
G1 X53.546 Y90.116 E0.1268
G1 X52.714 Y89.957 E0.1902
G1 X51.896 Y89.735 E0.2536
G1 X51.203 Y89.489 E0.3087
G1 X57.667 Y89.489 E0.7925
G1 X57.665 Y89.979 E0.8291
G1 X56.924 Y90.116 E0.8855
G1 X56.082 Y90.212 E0.9489
G1 X55.235 Y90.244 E1.0123
G1 X56.344 Y89.829 F3600
G92 E0.0000
G1 X56.354 Y89.839 E0.0010 F900
G1 X56.056 Y89.873 E0.0235
G1 X55.831 Y89.882 E0.0404
G1 X55.778 Y89.829 E0.0459
G1 X55.213 Y89.829 E0.0882
G1 X55.286 Y89.902 E0.0959
G1 X55.235 Y89.904 E0.0997
G1 X54.702 Y89.884 E0.1397
G1 X54.647 Y89.829 E0.1455
G1 X54.081 Y89.829 E0.1878
G1 X54.088 Y89.836 E0.1885
G92 E0.0000
G1 E-2.0000 F1800
G1 X64.835 Y89.489 F3600
G1 E0.0000 F1800
G92 E0.0000
G1 X71.299 Y89.489 E0.4837 F630
G1 X71.298 Y89.979 E0.5204
G1 X70.557 Y90.116 E0.5768
G1 X69.714 Y90.212 E0.6402
G1 X68.867 Y90.244 E0.7036
G1 X68.021 Y90.212 E0.7670
G1 X67.179 Y90.116 E0.8304
G1 X66.347 Y89.957 E0.8938
G1 X65.529 Y89.735 E0.9573
G1 X64.835 Y89.489 E1.0123
G1 X68.223 Y89.829 F3600
G92 E0.0000
G1 X68.276 Y89.882 E0.0056 F900
G1 X68.864 Y89.904 E0.0496
G1 X68.789 Y89.829 E0.0575
G1 X69.355 Y89.829 E0.0998
G1 X69.409 Y89.884 E0.1056
G1 X69.689 Y89.873 E0.1265
G1 X69.936 Y89.845 E0.1451
G1 X69.921 Y89.829 E0.1468
G92 E0.0000
G1 E-2.0000 F1800
G1 X68.100 Y93.100 F3600
G1 E0.0000 F1800
G92 E0.0000
G1 X71.900 Y93.100 E0.2844 F765
G1 X71.900 Y96.900 E0.5687
G1 X68.100 Y96.900 E0.8531
G1 X68.100 Y93.100 E1.1375
G1 X67.700 Y92.700 F3600
G92 E0.0000
G1 X71.700 Y92.700 E0.2993 F630
G1 X71.700 Y89.489 E0.5396
G1 X72.300 Y89.489 E0.5845
G1 X72.300 Y97.300 E1.1690
G1 X67.700 Y97.300 E1.5133
G1 X67.700 Y92.700 E1.8575
G1 X71.268 Y93.440 F3600
G92 E0.0000
G1 X71.560 Y93.732 E0.0309 F720
G1 X71.560 Y94.297 E0.0732
G1 X70.703 Y93.440 E0.1639
G1 X70.137 Y93.440 E0.2062
G1 X71.560 Y94.863 E0.3568
G1 X71.560 Y95.429 E0.3992
G1 X69.571 Y93.440 E0.6096
G1 X69.006 Y93.440 E0.6520
G1 X71.560 Y95.994 E0.9223
G1 X71.560 Y96.560 E0.9646
G1 X68.440 Y93.440 E1.2948
G1 X68.440 Y94.006 E1.3372
G1 X70.994 Y96.560 E1.6075
G1 X70.429 Y96.560 E1.6498
G1 X68.440 Y94.571 E1.8603
G1 X68.440 Y95.137 E1.9026
G1 X69.863 Y96.560 E2.0532
G1 X69.297 Y96.560 E2.0956
G1 X68.440 Y95.703 E2.1863
G1 X68.440 Y96.268 E2.2286
G1 X68.732 Y96.560 E2.2595
G92 E0.0000
G1 E-2.0000 F1800
G1 X68.100 Y106.311 F3600
G1 E0.0000 F1800
G92 E0.0000
G1 X71.900 Y106.311 E0.2844 F765
G1 X71.900 Y110.111 E0.5687
G1 X68.100 Y110.111 E0.8531
G1 X68.100 Y106.311 E1.1375
G1 X67.700 Y105.911 F3600
G92 E0.0000
G1 X71.700 Y105.911 E0.2993 F630
G1 X71.700 Y102.700 E0.5396
G1 X72.300 Y102.700 E0.5845
G1 X72.300 Y110.511 E1.1690
G1 X67.700 Y110.511 E1.5133
G1 X67.700 Y105.911 E1.8575
G1 X71.468 Y106.651 F3600
G92 E0.0000
G1 X71.560 Y106.742 E0.0097 F720
G1 X71.560 Y107.308 E0.0520
G1 X70.903 Y106.651 E0.1216
G1 X70.337 Y106.651 E0.1639
G1 X71.560 Y107.874 E0.2934
G1 X71.560 Y108.439 E0.3357
G1 X69.771 Y106.651 E0.5250
G1 X69.206 Y106.651 E0.5674
G1 X71.560 Y109.005 E0.8165
G1 X71.560 Y109.571 E0.8589
G1 X68.640 Y106.651 E1.1679
G1 X68.440 Y106.651 E1.1829
G1 X68.440 Y107.016 E1.2103
G1 X71.194 Y109.771 E1.5017
G1 X70.628 Y109.771 E1.5441
G1 X68.440 Y107.582 E1.7757
G1 X68.440 Y108.148 E1.8180
G1 X70.063 Y109.771 E1.9898
G1 X69.497 Y109.771 E2.0321
G1 X68.440 Y108.713 E2.1440
G1 X68.440 Y109.279 E2.1863
G1 X68.931 Y109.771 E2.2383
G92 E0.0000
G1 E-2.0000 F1800
G1 X68.867 Y103.455 F3600
G1 E0.0000 F1800
G92 E0.0000
G1 X68.021 Y103.423 E0.0634 F630
G1 X67.179 Y103.327 E0.1268
G1 X66.347 Y103.168 E0.1902
G1 X65.529 Y102.946 E0.2536
G1 X64.835 Y102.700 E0.3087
G1 X71.299 Y102.700 E0.7924
G1 X71.298 Y103.189 E0.8291
G1 X70.557 Y103.327 E0.8855
G1 X69.714 Y103.423 E0.9489
G1 X68.867 Y103.455 E1.0123
G1 X69.555 Y103.040 F3600
G92 E0.0000
G1 X69.602 Y103.087 E0.0050 F900
G1 X69.057 Y103.108 E0.0458
G1 X68.989 Y103.040 E0.0530
G1 X68.423 Y103.040 E0.0953
G1 X68.484 Y103.100 E0.1017
G1 X68.046 Y103.084 E0.1344
G1 X67.883 Y103.065 E0.1467
G1 X67.858 Y103.040 E0.1494
G92 E0.0000
G1 E-2.0000 F1800
G1 X58.267 Y106.311 F3600
G1 E0.0000 F1800
G92 E0.0000
G1 X58.267 Y110.111 E0.2844 F765
G1 X54.467 Y110.111 E0.5687
G1 X54.467 Y106.311 E0.8531
G1 X58.267 Y106.311 E1.1375
G1 X58.067 Y105.911 F3600
G92 E0.0000
G1 X58.067 Y102.700 E0.2403 F630
G1 X58.667 Y102.700 E0.2852
G1 X58.667 Y110.511 E0.8697
G1 X54.067 Y110.511 E1.2139
G1 X54.067 Y105.911 E1.5582
G1 X58.067 Y105.911 E1.8575
G1 X57.892 Y106.651 F3600
G92 E0.0000
G1 X57.927 Y106.686 E0.0038 F720
G1 X57.927 Y107.252 E0.0461
G1 X57.326 Y106.651 E0.1097
G1 X56.760 Y106.651 E0.1521
G1 X57.927 Y107.818 E0.2756
G1 X57.927 Y108.383 E0.3179
G1 X56.195 Y106.651 E0.5013
G1 X55.629 Y106.651 E0.5436
G1 X57.927 Y108.949 E0.7869
G1 X57.927 Y109.515 E0.8292
G1 X55.063 Y106.651 E1.1323
G1 X54.807 Y106.651 E1.1515
G1 X54.807 Y106.960 E1.1747
G1 X57.618 Y109.771 E1.4721
G1 X57.052 Y109.771 E1.5144
G1 X54.807 Y107.526 E1.7520
G1 X54.807 Y108.092 E1.7943
G1 X56.486 Y109.771 E1.9720
G1 X55.921 Y109.771 E2.0143
G1 X54.807 Y108.657 E2.1321
G1 X54.807 Y109.223 E2.1744
G1 X55.355 Y109.771 E2.2324
G92 E0.0000
G1 E-2.0000 F1800
G1 X55.235 Y103.455 F3600
G1 E0.0000 F1800
G92 E0.0000
G1 X54.388 Y103.423 E0.0634 F630
G1 X53.546 Y103.327 E0.1268
G1 X52.714 Y103.168 E0.1902
G1 X51.896 Y102.946 E0.2536
G1 X51.203 Y102.700 E0.3087
G1 X57.667 Y102.700 E0.7924
G1 X57.665 Y103.189 E0.8291
G1 X56.924 Y103.327 E0.8855
G1 X56.082 Y103.423 E0.9489
G1 X55.235 Y103.455 E1.0123
G1 X55.978 Y103.040 F3600
G92 E0.0000
G1 X56.023 Y103.085 E0.0048 F900
G1 X55.478 Y103.106 E0.0456
G1 X55.413 Y103.040 E0.0525
G1 X54.847 Y103.040 E0.0949
G1 X54.909 Y103.103 E0.1015
G1 X54.414 Y103.084 E0.1386
G1 X54.314 Y103.072 E0.1461
G1 X54.281 Y103.040 E0.1496
G92 E0.0000
G1 E-2.0000 F1800
G1 X54.467 Y119.521 F3600
G1 E0.0000 F1800
G92 E0.0000
G1 X58.267 Y119.521 E0.2844 F765
G1 X58.267 Y123.321 E0.5687
G1 X54.467 Y123.321 E0.8531
G1 X54.467 Y119.521 E1.1375
G1 X54.067 Y119.121 F3600
G92 E0.0000
G1 X58.067 Y119.121 E0.2993 F630
G1 X58.067 Y115.911 E0.5396
G1 X58.667 Y115.911 E0.5845
G1 X58.667 Y123.721 E1.1690
G1 X54.067 Y123.721 E1.5133
G1 X54.067 Y119.121 E1.8575
G1 X57.526 Y119.861 F3600
G92 E0.0000
G1 X57.927 Y120.263 E0.0425 F720
G1 X57.927 Y120.828 E0.0848
G1 X56.960 Y119.861 E0.1872
G1 X56.395 Y119.861 E0.2295
G1 X57.927 Y121.394 E0.3917
G1 X57.927 Y121.960 E0.4341
G1 X55.829 Y119.861 E0.6562
G1 X55.263 Y119.861 E0.6985
G1 X57.927 Y122.525 E0.9805
G1 X57.927 Y122.981 E1.0146
G1 X57.818 Y122.981 E1.0228
G1 X54.807 Y119.971 E1.3414
G1 X54.807 Y120.537 E1.3837
G1 X57.252 Y122.981 E1.6424
G1 X56.686 Y122.981 E1.6847
G1 X54.807 Y121.103 E1.8836
G1 X54.807 Y121.668 E1.9259
G1 X56.121 Y122.981 E2.0649
G1 X55.555 Y122.981 E2.1072
G1 X54.807 Y122.234 E2.1863
G1 X54.807 Y122.800 E2.2286
G1 X54.989 Y122.981 E2.2478
G92 E0.0000
G1 E-2.0000 F1800
G1 X55.235 Y116.666 F3600
G1 E0.0000 F1800
G92 E0.0000
G1 X54.388 Y116.634 E0.0634 F630
G1 X53.546 Y116.538 E0.1268
G1 X52.714 Y116.378 E0.1902
G1 X51.896 Y116.156 E0.2536
G1 X51.203 Y115.911 E0.3087
G1 X57.667 Y115.911 E0.7924
G1 X57.665 Y116.400 E0.8291
G1 X56.924 Y116.538 E0.8855
G1 X56.082 Y116.634 E0.9489
G1 X55.235 Y116.666 E1.0123
G1 X54.481 Y116.251 F3600
G92 E0.0000
G1 X54.529 Y116.299 E0.0051 F900
G1 X55.117 Y116.321 E0.0491
G1 X55.047 Y116.251 E0.0566
G1 X55.612 Y116.251 E0.0989
G1 X55.671 Y116.309 E0.1051
G1 X56.056 Y116.294 E0.1339
G1 X56.205 Y116.277 E0.1451
G1 X56.178 Y116.251 E0.1480
G92 E0.0000
G1 E-2.0000 F1800
G1 X64.835 Y115.911 F3600
G1 E0.0000 F1800
G92 E0.0000
G1 X71.299 Y115.911 E0.4837 F630
G1 X71.298 Y116.400 E0.5204
G1 X70.557 Y116.538 E0.5767
G1 X69.714 Y116.634 E0.6402
G1 X68.867 Y116.666 E0.7036
G1 X68.021 Y116.634 E0.7670
G1 X67.179 Y116.538 E0.8304
G1 X66.347 Y116.378 E0.8938
G1 X65.529 Y116.156 E0.9572
G1 X64.835 Y115.911 E1.0123
G1 X68.058 Y116.251 F3600
G92 E0.0000
G1 X68.103 Y116.297 E0.0049 F900
G1 X68.691 Y116.319 E0.0489
G1 X68.623 Y116.251 E0.0561
G1 X69.189 Y116.251 E0.0984
G1 X69.249 Y116.311 E0.1048
G1 X69.689 Y116.294 E0.1377
G1 X69.787 Y116.283 E0.1452
G1 X69.755 Y116.251 E0.1486
G92 E0.0000
G1 E-2.0000 F1800
G1 X68.100 Y119.521 F3600
G1 E0.0000 F1800
G92 E0.0000
G1 X71.900 Y119.521 E0.2844 F765
G1 X71.900 Y123.321 E0.5687
G1 X68.100 Y123.321 E0.8531
G1 X68.100 Y119.521 E1.1375
G1 X67.700 Y119.121 F3600
G92 E0.0000
G1 X71.700 Y119.121 E0.2993 F630
G1 X71.700 Y115.911 E0.5396
G1 X72.300 Y115.911 E0.5845
G1 X72.300 Y123.721 E1.1690
G1 X67.700 Y123.721 E1.5133
G1 X67.700 Y119.121 E1.8575
G1 X71.102 Y119.861 F3600
G92 E0.0000
G1 X71.560 Y120.319 E0.0484 F720
G1 X71.560 Y120.884 E0.0908
G1 X70.537 Y119.861 E0.1990
G1 X69.971 Y119.861 E0.2414
G1 X71.560 Y121.450 E0.4095
G1 X71.560 Y122.016 E0.4519
G1 X69.405 Y119.861 E0.6799
G1 X68.840 Y119.861 E0.7222
G1 X71.560 Y122.582 E1.0101
G1 X71.560 Y122.981 E1.0400
G1 X71.394 Y122.981 E1.0525
G1 X68.440 Y120.027 E1.3651
G1 X68.440 Y120.593 E1.4074
G1 X70.828 Y122.981 E1.6602
G1 X70.263 Y122.981 E1.7025
G1 X68.440 Y121.159 E1.8954
G1 X68.440 Y121.724 E1.9378
G1 X69.697 Y122.981 E2.0708
G1 X69.131 Y122.981 E2.1131
G1 X68.440 Y122.290 E2.1863
G1 X68.440 Y122.856 E2.2286
G1 X68.566 Y122.981 E2.2419
G92 E0.0000
G1 E-2.0000 F1800
G1 X78.468 Y115.911 F3600
G1 E0.0000 F1800
G92 E0.0000
G1 X84.932 Y115.911 E0.4837 F630
G1 X84.930 Y116.400 E0.5204
G1 X84.189 Y116.538 E0.5767
G1 X83.347 Y116.634 E0.6402
G1 X82.500 Y116.666 E0.7036
G1 X81.653 Y116.634 E0.7670
G1 X80.811 Y116.538 E0.8304
G1 X79.979 Y116.378 E0.8938
G1 X79.161 Y116.156 E0.9572
G1 X78.468 Y115.911 E1.0123
G1 X81.634 Y116.251 F3600
G92 E0.0000
G1 X81.678 Y116.294 E0.0046 F900
G1 X82.266 Y116.317 E0.0487
G1 X82.200 Y116.251 E0.0556
G1 X82.765 Y116.251 E0.0980
G1 X82.828 Y116.313 E0.1046
G1 X83.321 Y116.294 E0.1415
G1 X83.369 Y116.289 E0.1452
G1 X83.331 Y116.251 E0.1492
G92 E0.0000
G1 E-2.0000 F1800
G1 X81.732 Y119.521 F3600
G1 E0.0000 F1800
G92 E0.0000
G1 X85.532 Y119.521 E0.2844 F765
G1 X85.532 Y123.321 E0.5687
G1 X81.732 Y123.321 E0.8531
G1 X81.732 Y119.521 E1.1375
G1 X81.332 Y119.121 F3600
G92 E0.0000
G1 X85.332 Y119.121 E0.2993 F630
G1 X85.332 Y115.911 E0.5396
G1 X85.933 Y115.911 E0.5845
G1 X85.933 Y123.721 E1.1690
G1 X81.332 Y123.721 E1.5133
G1 X81.332 Y119.121 E1.8575
G1 X84.679 Y119.861 F3600
G92 E0.0000
G1 X85.192 Y120.375 E0.0544 F720
G1 X85.192 Y120.941 E0.0967
G1 X84.113 Y119.861 E0.2109
G1 X83.548 Y119.861 E0.2532
G1 X85.192 Y121.506 E0.4273
G1 X85.192 Y122.072 E0.4697
G1 X82.982 Y119.861 E0.7036
G1 X82.416 Y119.861 E0.7460
G1 X85.192 Y122.638 E1.0398
G1 X85.192 Y122.981 E1.0655
G1 X84.970 Y122.981 E1.0821
G1 X82.072 Y120.083 E1.3888
G1 X82.072 Y120.649 E1.4312
G1 X84.405 Y122.981 E1.6780
G1 X83.839 Y122.981 E1.7203
G1 X82.072 Y121.215 E1.9073
G1 X82.072 Y121.780 E1.9496
G1 X83.273 Y122.981 E2.0767
G1 X82.708 Y122.981 E2.1191
G1 X82.072 Y122.346 E2.1863
G1 X82.072 Y122.912 E2.2286
G1 X82.142 Y122.981 E2.2360
G92 E0.0000
G1 E-2.0000 F1800
G1 X92.100 Y115.911 F3600
G1 E0.0000 F1800
G92 E0.0000
G1 X98.564 Y115.911 E0.4837 F630
G1 X98.563 Y116.400 E0.5204
G1 X97.822 Y116.538 E0.5767
G1 X96.979 Y116.634 E0.6402
G1 X96.132 Y116.666 E0.7036
G1 X95.286 Y116.634 E0.7670
G1 X94.444 Y116.538 E0.8304
G1 X93.612 Y116.378 E0.8938
G1 X92.794 Y116.156 E0.9572
G1 X92.100 Y115.911 E1.0123
G1 X95.210 Y116.251 F3600
G92 E0.0000
G1 X95.247 Y116.287 E0.0039 F900
G1 X95.311 Y116.294 E0.0087
G1 X95.840 Y116.314 E0.0483
G1 X95.776 Y116.251 E0.0550
G1 X96.342 Y116.251 E0.0974
G1 X96.406 Y116.315 E0.1042
G1 X96.951 Y116.294 E0.1450
G1 X96.907 Y116.251 E0.1497
G92 E0.0000
G1 E-2.0000 F1800
G1 X95.365 Y119.521 F3600
G1 E0.0000 F1800
G92 E0.0000
G1 X99.165 Y119.521 E0.2844 F765
G1 X99.165 Y123.321 E0.5687
G1 X95.365 Y123.321 E0.8531
G1 X95.365 Y119.521 E1.1375
G1 X94.965 Y119.121 F3600
G92 E0.0000
G1 X98.965 Y119.121 E0.2993 F630
G1 X98.965 Y115.911 E0.5396
G1 X99.565 Y115.911 E0.5845
G1 X99.565 Y123.721 E1.1690
G1 X94.965 Y123.721 E1.5133
G1 X94.965 Y119.121 E1.8575
G1 X95.705 Y122.968 F3600
G92 E0.0000
G1 X95.719 Y122.981 E0.0014 F720
G1 X96.284 Y122.981 E0.0438
G1 X95.705 Y122.402 E0.1051
G1 X95.705 Y121.836 E0.1474
G1 X96.850 Y122.981 E0.2686
G1 X97.416 Y122.981 E0.3109
G1 X95.705 Y121.271 E0.4919
G1 X95.705 Y120.705 E0.5343
G1 X97.981 Y122.981 E0.7752
G1 X98.547 Y122.981 E0.8175
G1 X95.705 Y120.139 E1.1183
G1 X95.705 Y119.861 E1.1391
G1 X95.993 Y119.861 E1.1606
G1 X98.825 Y122.694 E1.4604
G1 X98.825 Y122.128 E1.5027
G1 X96.558 Y119.861 E1.7426
G1 X97.124 Y119.861 E1.7849
G1 X98.825 Y121.562 E1.9649
G1 X98.825 Y120.997 E2.0073
G1 X97.690 Y119.861 E2.1274
G1 X98.255 Y119.861 E2.1698
G1 X98.825 Y120.431 E2.2300
G1 X98.825 Y119.865 E2.2724
G1 X98.821 Y119.861 E2.2728
G92 E0.0000
G1 E-2.0000 F1800
G1 X99.165 Y110.111 F3600
G1 E0.0000 F1800
G92 E0.0000
G1 X95.365 Y110.111 E0.2844 F765
G1 X95.365 Y106.311 E0.5687
G1 X99.165 Y106.311 E0.8531
G1 X99.165 Y110.111 E1.1375
G1 X99.565 Y110.511 F3600
G92 E0.0000
G1 X94.965 Y110.511 E0.3442 F630
G1 X94.965 Y105.911 E0.6885
G1 X98.965 Y105.911 E0.9878
G1 X98.965 Y102.700 E1.2281
G1 X99.565 Y102.700 E1.2730
G1 X99.565 Y110.511 E1.8575
G1 X96.084 Y109.771 F3600
G92 E0.0000
G1 X95.705 Y109.391 E0.0401 F720
G1 X95.705 Y108.826 E0.0825
G1 X96.650 Y109.771 E0.1825
G1 X97.216 Y109.771 E0.2248
G1 X95.705 Y108.260 E0.3847
G1 X95.705 Y107.694 E0.4270
G1 X97.781 Y109.771 E0.6468
G1 X98.347 Y109.771 E0.6891
G1 X95.705 Y107.129 E0.9687
G1 X95.705 Y106.651 E1.0045
G1 X95.793 Y106.651 E1.0111
G1 X98.825 Y109.683 E1.3320
G1 X98.825 Y109.117 E1.3743
G1 X96.358 Y106.651 E1.6354
G1 X96.924 Y106.651 E1.6777
G1 X98.825 Y108.551 E1.8789
G1 X98.825 Y107.986 E1.9212
G1 X97.490 Y106.651 E2.0625
G1 X98.056 Y106.651 E2.1048
G1 X98.825 Y107.420 E2.1863
G1 X98.825 Y106.854 E2.2286
G1 X98.621 Y106.651 E2.2502
G92 E0.0000
G1 E-2.0000 F1800
G1 X97.822 Y103.327 F3600
G1 E0.0000 F1800
G92 E0.0000
G1 X96.979 Y103.423 E0.0634 F630
G1 X96.132 Y103.455 E0.1269
G1 X95.286 Y103.423 E0.1903
G1 X94.444 Y103.327 E0.2537
G1 X93.612 Y103.168 E0.3171
G1 X92.794 Y102.946 E0.3805
G1 X92.100 Y102.700 E0.4356
G1 X98.564 Y102.700 E0.9193
G1 X98.563 Y103.189 E0.9559
G1 X97.822 Y103.327 E1.0123
G1 X97.273 Y103.040 F3600
G92 E0.0000
G1 X97.280 Y103.047 E0.0007 F900
G1 X96.954 Y103.084 E0.0253
G1 X96.759 Y103.091 E0.0399
G1 X96.708 Y103.040 E0.0453
G1 X96.142 Y103.040 E0.0876
G1 X96.214 Y103.112 E0.0952
G1 X96.132 Y103.115 E0.1013
G1 X95.632 Y103.096 E0.1388
G1 X95.576 Y103.040 E0.1447
G1 X95.011 Y103.040 E0.1870
G1 X95.021 Y103.051 E0.1881
G92 E0.0000
G1 E-2.0000 F1800
G1 X95.365 Y96.900 F3600
G1 E0.0000 F1800
G92 E0.0000
G1 X95.365 Y93.100 E0.2844 F765
G1 X99.165 Y93.100 E0.5687
G1 X99.165 Y96.900 E0.8531
G1 X95.365 Y96.900 E1.1375
G1 X94.965 Y97.300 F3600
G92 E0.0000
G1 X94.965 Y92.700 E0.3442 F630
G1 X98.965 Y92.700 E0.6436
G1 X98.965 Y89.489 E0.8839
G1 X99.565 Y89.489 E0.9288
G1 X99.565 Y97.300 E1.5133
G1 X94.965 Y97.300 E1.8575
G1 X95.884 Y96.560 F3600
G92 E0.0000
G1 X95.705 Y96.381 E0.0190 F720
G1 X95.705 Y95.815 E0.0613
G1 X96.450 Y96.560 E0.1402
G1 X97.016 Y96.560 E0.1825
G1 X95.705 Y95.249 E0.3213
G1 X95.705 Y94.683 E0.3636
G1 X97.582 Y96.560 E0.5622
G1 X98.147 Y96.560 E0.6045
G1 X95.705 Y94.118 E0.8630
G1 X95.705 Y93.552 E0.9053
G1 X98.713 Y96.560 E1.2237
G1 X98.825 Y96.560 E1.2320
G1 X98.825 Y96.106 E1.2660
G1 X96.159 Y93.440 E1.5482
G1 X96.724 Y93.440 E1.5905
G1 X98.825 Y95.541 E1.8128
G1 X98.825 Y94.975 E1.8552
G1 X97.290 Y93.440 E2.0176
G1 X97.856 Y93.440 E2.0600
G1 X98.825 Y94.409 E2.1626
G1 X98.825 Y93.844 E2.2049
G1 X98.421 Y93.440 E2.2476
G92 E0.0000
G1 E-2.0000 F1800
G1 X97.822 Y90.116 F3600
G1 E0.0000 F1800
G92 E0.0000
G1 X96.979 Y90.212 E0.0634 F630
G1 X96.132 Y90.244 E0.1269
G1 X95.286 Y90.212 E0.1903
G1 X94.444 Y90.116 E0.2537
G1 X93.612 Y89.957 E0.3171
G1 X92.794 Y89.735 E0.3805
G1 X92.100 Y89.489 E0.4356
G1 X98.564 Y89.489 E0.9193
G1 X98.563 Y89.979 E0.9559
G1 X97.822 Y90.116 E1.0123
G1 X97.073 Y89.829 F3600
G92 E0.0000
G1 X97.100 Y89.856 E0.0029 F900
G1 X96.954 Y89.873 E0.0139
G1 X96.566 Y89.888 E0.0429
G1 X96.508 Y89.829 E0.0491
G1 X95.942 Y89.829 E0.0915
G1 X96.012 Y89.900 E0.0989
G1 X95.424 Y89.877 E0.1429
G1 X95.376 Y89.829 E0.1480
G92 E0.0000
G1 E-2.0000 F1800
G1 X95.365 Y83.689 F3600
G1 E0.0000 F1800
G92 E0.0000
G1 X95.365 Y79.889 E0.2844 F765
G1 X99.165 Y79.889 E0.5687
G1 X99.165 Y83.689 E0.8531
G1 X95.365 Y83.689 E1.1375
G1 X94.965 Y84.089 F3600
G92 E0.0000
G1 X94.965 Y79.489 E0.3442 F630
G1 X98.965 Y79.489 E0.6436
G1 X98.965 Y76.279 E0.8839
G1 X99.565 Y76.279 E0.9288
G1 X99.565 Y84.089 E1.5133
G1 X94.965 Y84.089 E1.8575
G1 X96.250 Y83.349 F3600
G92 E0.0000
G1 X95.705 Y82.804 E0.0577 F720
G1 X95.705 Y82.238 E0.1000
G1 X96.816 Y83.349 E0.2176
G1 X97.382 Y83.349 E0.2600
G1 X95.705 Y81.673 E0.4374
G1 X95.705 Y81.107 E0.4797
G1 X97.947 Y83.349 E0.7171
G1 X98.513 Y83.349 E0.7594
G1 X95.705 Y80.541 E1.0566
G1 X95.705 Y80.229 E1.0799
G1 X95.959 Y80.229 E1.0989
G1 X98.825 Y83.096 E1.4022
G1 X98.825 Y82.530 E1.4446
G1 X96.524 Y80.229 E1.6881
G1 X97.090 Y80.229 E1.7304
G1 X98.825 Y81.964 E1.9140
G1 X98.825 Y81.399 E1.9563
G1 X97.656 Y80.229 E2.0801
G1 X98.221 Y80.229 E2.1224
G1 X98.825 Y80.833 E2.1863
G1 X98.825 Y80.267 E2.2286
G1 X98.787 Y80.229 E2.2326
G92 E0.0000
G1 E-2.0000 F1800
G1 X97.822 Y76.906 F3600
G1 E0.0000 F1800
G92 E0.0000
G1 X96.979 Y77.002 E0.0634 F630
G1 X96.132 Y77.034 E0.1269
G1 X95.286 Y77.002 E0.1903
G1 X94.444 Y76.906 E0.2537
G1 X93.612 Y76.746 E0.3171
G1 X92.794 Y76.525 E0.3805
G1 X92.100 Y76.279 E0.4356
G1 X98.564 Y76.279 E0.9193
G1 X98.563 Y76.768 E0.9559
G1 X97.822 Y76.906 E1.0123
G1 X96.874 Y76.619 F3600
G92 E0.0000
G1 X96.919 Y76.664 E0.0048 F900
G1 X96.374 Y76.684 E0.0456
G1 X96.308 Y76.619 E0.0525
G1 X95.742 Y76.619 E0.0949
G1 X95.805 Y76.681 E0.1015
G1 X95.311 Y76.663 E0.1384
G1 X95.209 Y76.651 E0.1462
G1 X95.177 Y76.619 E0.1496
G92 E0.0000
G1 E-2.0000 F1800
G1 X85.532 Y79.889 F3600
G1 E0.0000 F1800
G92 E0.0000
G1 X85.532 Y83.689 E0.2844 F765
G1 X81.732 Y83.689 E0.5687
G1 X81.732 Y79.889 E0.8531
G1 X85.532 Y79.889 E1.1375
G1 X85.332 Y79.489 F3600
G92 E0.0000
G1 X85.332 Y76.279 E0.2403 F630
G1 X85.933 Y76.279 E0.2852
G1 X85.933 Y84.089 E0.8697
G1 X81.332 Y84.089 E1.2139
G1 X81.332 Y79.489 E1.5582
G1 X85.332 Y79.489 E1.8575
G1 X84.645 Y80.229 F3600
G92 E0.0000
G1 X85.192 Y80.777 E0.0579 F720
G1 X85.192 Y81.343 E0.1003
G1 X84.079 Y80.229 E0.2181
G1 X83.514 Y80.229 E0.2604
G1 X85.192 Y81.908 E0.4381
G1 X85.192 Y82.474 E0.4804
G1 X82.948 Y80.229 E0.7180
G1 X82.382 Y80.229 E0.7603
G1 X85.192 Y83.040 E1.0577
G1 X85.192 Y83.349 E1.0809
G1 X84.937 Y83.349 E1.1001
G1 X82.072 Y80.485 E1.4032
G1 X82.072 Y81.051 E1.4455
G1 X84.371 Y83.349 E1.6888
G1 X83.805 Y83.349 E1.7311
G1 X82.072 Y81.617 E1.9145
G1 X82.072 Y82.182 E1.9568
G1 X83.240 Y83.349 E2.0803
G1 X82.674 Y83.349 E2.1226
G1 X82.072 Y82.748 E2.1863
G1 X82.072 Y83.314 E2.2286
G1 X82.108 Y83.349 E2.2324
G92 E0.0000
G1 E-2.0000 F1800
G1 X82.500 Y77.034 F3600
G1 E0.0000 F1800
G92 E0.0000
G1 X81.653 Y77.002 E0.0634 F630
G1 X80.811 Y76.906 E0.1268
G1 X79.979 Y76.746 E0.1902
G1 X79.161 Y76.525 E0.2536
G1 X78.468 Y76.279 E0.3087
G1 X84.932 Y76.279 E0.7924
G1 X84.930 Y76.768 E0.8291
G1 X84.189 Y76.906 E0.8855
G1 X83.347 Y77.002 E0.9489
G1 X82.500 Y77.034 E1.0123
G1 X83.297 Y76.619 F3600
G92 E0.0000
G1 X83.339 Y76.660 E0.0044 F900
G1 X83.321 Y76.663 E0.0058
G1 X82.795 Y76.682 E0.0451
G1 X82.731 Y76.619 E0.0519
G1 X82.166 Y76.619 E0.0942
G1 X82.230 Y76.683 E0.1011
G1 X81.679 Y76.663 E0.1424
G1 X81.639 Y76.658 E0.1453
G1 X81.600 Y76.619 E0.1495
G92 E0.0000
G1 E-2.0000 F1800
G1 X71.900 Y79.889 F3600
G1 E0.0000 F1800
G92 E0.0000
G1 X71.900 Y83.689 E0.2844 F765
G1 X68.100 Y83.689 E0.5687
G1 X68.100 Y79.889 E0.8531
G1 X71.900 Y79.889 E1.1375
G1 X71.700 Y79.489 F3600
G92 E0.0000
G1 X71.700 Y76.279 E0.2403 F630
G1 X72.300 Y76.279 E0.2852
G1 X72.300 Y84.089 E0.8697
G1 X67.700 Y84.089 E1.2139
G1 X67.700 Y79.489 E1.5582
G1 X71.700 Y79.489 E1.8575
G1 X71.069 Y80.229 F3600
G92 E0.0000
G1 X71.560 Y80.721 E0.0520 F720
G1 X71.560 Y81.286 E0.0943
G1 X70.503 Y80.229 E0.2062
G1 X69.937 Y80.229 E0.2486
G1 X71.560 Y81.852 E0.4203
G1 X71.560 Y82.418 E0.4626
G1 X69.372 Y80.229 E0.6942
G1 X68.806 Y80.229 E0.7366
G1 X71.560 Y82.984 E1.0281
G1 X71.560 Y83.349 E1.0554
G1 X71.360 Y83.349 E1.0704
G1 X68.440 Y80.429 E1.3794
G1 X68.440 Y80.995 E1.4218
G1 X70.794 Y83.349 E1.6710
G1 X70.229 Y83.349 E1.7133
G1 X68.440 Y81.561 E1.9026
G1 X68.440 Y82.126 E1.9449
G1 X69.663 Y83.349 E2.0744
G1 X69.097 Y83.349 E2.1167
G1 X68.440 Y82.692 E2.1863
G1 X68.440 Y83.258 E2.2286
G1 X68.532 Y83.349 E2.2383
G92 E0.0000
G1 E-2.0000 F1800
G1 X68.867 Y77.034 F3600
G1 E0.0000 F1800
G92 E0.0000
G1 X68.021 Y77.002 E0.0634 F630
G1 X67.179 Y76.906 E0.1268
G1 X66.347 Y76.746 E0.1902
G1 X65.529 Y76.525 E0.2536
G1 X64.835 Y76.279 E0.3087
G1 X71.299 Y76.279 E0.7924
G1 X71.298 Y76.768 E0.8291
G1 X70.557 Y76.906 E0.8855
G1 X69.714 Y77.002 E0.9489
G1 X68.867 Y77.034 E1.0123
G1 X68.024 Y76.619 F3600
G92 E0.0000
G1 X68.068 Y76.663 E0.0047 F900
G1 X68.656 Y76.686 E0.0487
G1 X68.589 Y76.619 E0.0558
G1 X69.155 Y76.619 E0.0982
G1 X69.217 Y76.680 E0.1047
G1 X69.689 Y76.663 E0.1400
G1 X69.757 Y76.655 E0.1452
G1 X69.721 Y76.619 E0.1490
G92 E0.0000
G1 E-2.0000 F1800
G1 X78.468 Y89.489 F3600
G1 E0.0000 F1800
G92 E0.0000
G1 X84.932 Y89.489 E0.4837 F630
G1 X84.930 Y89.979 E0.5204
G1 X84.189 Y90.116 E0.5768
G1 X83.347 Y90.212 E0.6402
G1 X82.500 Y90.244 E0.7036
G1 X81.653 Y90.212 E0.7670
G1 X80.811 Y90.116 E0.8304
G1 X79.979 Y89.957 E0.8938
G1 X79.161 Y89.735 E0.9573
G1 X78.468 Y89.489 E1.0123
G1 X81.800 Y89.829 F3600
G92 E0.0000
G1 X81.850 Y89.880 E0.0053 F900
G1 X82.438 Y89.902 E0.0493
G1 X82.366 Y89.829 E0.0570
G1 X82.931 Y89.829 E0.0994
G1 X82.988 Y89.886 E0.1053
G1 X83.321 Y89.873 E0.1303
G1 X83.518 Y89.851 E0.1451
G1 X83.497 Y89.829 E0.1474
G92 E0.0000
G1 E-2.0000 F1800
G1 X81.732 Y93.100 F3600
G1 E0.0000 F1800
G92 E0.0000
G1 X85.532 Y93.100 E0.2844 F765
G1 X85.532 Y96.900 E0.5687
G1 X81.732 Y96.900 E0.8531
G1 X81.732 Y93.100 E1.1375
G1 X81.332 Y92.700 F3600
G92 E0.0000
G1 X85.332 Y92.700 E0.2993 F630
G1 X85.332 Y89.489 E0.5396
G1 X85.933 Y89.489 E0.5845
G1 X85.933 Y97.300 E1.1690
G1 X81.332 Y97.300 E1.5133
G1 X81.332 Y92.700 E1.8575
G1 X84.845 Y93.440 F3600
G92 E0.0000
G1 X85.192 Y93.788 E0.0368 F720
G1 X85.192 Y94.353 E0.0791
G1 X84.279 Y93.440 E0.1758
G1 X83.714 Y93.440 E0.2181
G1 X85.192 Y94.919 E0.3746
G1 X85.192 Y95.485 E0.4170
G1 X83.148 Y93.440 E0.6334
G1 X82.582 Y93.440 E0.6757
G1 X85.192 Y96.050 E0.9520
G1 X85.192 Y96.560 E0.9901
G1 X85.136 Y96.560 E0.9943
G1 X82.072 Y93.496 E1.3186
G1 X82.072 Y94.062 E1.3609
G1 X84.571 Y96.560 E1.6253
G1 X84.005 Y96.560 E1.6676
G1 X82.072 Y94.627 E1.8722
G1 X82.072 Y95.193 E1.9145
G1 X83.439 Y96.560 E2.0592
G1 X82.874 Y96.560 E2.1015
G1 X82.072 Y95.759 E2.1863
G1 X82.072 Y96.324 E2.2286
G1 X82.308 Y96.560 E2.2536
G92 E0.0000
G1 E-2.0000 F1800
G1 X81.732 Y106.311 F3600
G1 E0.0000 F1800
G92 E0.0000
G1 X85.532 Y106.311 E0.2844 F765
G1 X85.532 Y110.111 E0.5687
G1 X81.732 Y110.111 E0.8531
G1 X81.732 Y106.311 E1.1375
G1 X81.332 Y105.911 F3600
G92 E0.0000
G1 X85.332 Y105.911 E0.2993 F630
G1 X85.332 Y102.700 E0.5396
G1 X85.933 Y102.700 E0.5845
G1 X85.933 Y110.511 E1.1690
G1 X81.332 Y110.511 E1.5133
G1 X81.332 Y105.911 E1.8575
G1 X85.045 Y106.651 F3600
G92 E0.0000
G1 X85.192 Y106.798 E0.0156 F720
G1 X85.192 Y107.364 E0.0580
G1 X84.479 Y106.651 E0.1335
G1 X83.913 Y106.651 E0.1758
G1 X85.192 Y107.930 E0.3112
G1 X85.192 Y108.495 E0.3535
G1 X83.348 Y106.651 E0.5488
G1 X82.782 Y106.651 E0.5911
G1 X85.192 Y109.061 E0.8462
G1 X85.192 Y109.627 E0.8885
G1 X82.216 Y106.651 E1.2035
G1 X82.072 Y106.651 E1.2143
G1 X82.072 Y107.072 E1.2459
G1 X84.771 Y109.771 E1.5314
G1 X84.205 Y109.771 E1.5737
G1 X82.072 Y107.638 E1.7994
G1 X82.072 Y108.204 E1.8418
G1 X83.639 Y109.771 E2.0076
G1 X83.074 Y109.771 E2.0499
G1 X82.072 Y108.770 E2.1559
G1 X82.072 Y109.335 E2.1982
G1 X82.508 Y109.771 E2.2443
G92 E0.0000
G1 E-2.0000 F1800
G1 X82.500 Y103.455 F3600
G1 E0.0000 F1800
G92 E0.0000
G1 X81.653 Y103.423 E0.0634 F630
G1 X80.811 Y103.327 E0.1268
G1 X79.979 Y103.168 E0.1902
G1 X79.161 Y102.946 E0.2536
G1 X78.468 Y102.700 E0.3087
G1 X84.932 Y102.700 E0.7924
G1 X84.930 Y103.189 E0.8291
G1 X84.189 Y103.327 E0.8855
G1 X83.347 Y103.423 E0.9489
G1 X82.500 Y103.455 E1.0123
G1 X81.452 Y103.058 F3600
G92 E0.0000
G1 X81.434 Y103.040 E0.0019 F900
G1 X82.000 Y103.040 E0.0442
G1 X82.058 Y103.098 E0.0504
G1 X82.500 Y103.115 E0.0835
G1 X82.635 Y103.110 E0.0936
G1 X82.565 Y103.040 E0.1010
G1 X83.131 Y103.040 E0.1433
G1 X83.180 Y103.089 E0.1485
G1 X83.321 Y103.084 E0.1591
G1 X83.697 Y103.040 E0.1875
G92 E0.0000
G1 E-2.0000 F1800
G1 Z2.310 F2400
G1 X85.532 Y106.311 F3600
G1 E0.0000 F1800
G92 E0.0000
G1 X85.532 Y110.111 E0.1896 F1530
G1 X81.732 Y110.111 E0.3792
G1 X81.732 Y106.311 E0.5687
G1 X85.532 Y106.311 E0.7583
G1 X85.332 Y105.911 F3600
G92 E0.0000
G1 X85.332 Y103.115 E0.1395 F1260
G1 X84.189 Y103.327 E0.1975
G1 X83.347 Y103.423 E0.2398
G1 X82.500 Y103.455 E0.2821
G1 X81.653 Y103.423 E0.3244
G1 X80.811 Y103.327 E0.3666
G1 X79.979 Y103.168 E0.4089
G1 X79.161 Y102.946 E0.4512
G1 X78.468 Y102.700 E0.4879
G1 X85.933 Y102.700 E0.8603
G1 X85.933 Y110.511 E1.2500
G1 X81.332 Y110.511 E1.4795
G1 X81.332 Y105.911 E1.7090
G1 X85.332 Y105.911 E1.9085
G92 E0.0000
G1 E-2.0000 F1800
G1 X83.226 Y103.087 F3600
G1 E0.0000 F1800
G92 E0.0000
G1 X83.274 Y103.040 E0.0033 F1800
G1 X82.708 Y103.040 E0.0316
G1 X82.638 Y103.110 E0.0365
G1 X82.500 Y103.115 E0.0434
G1 X82.083 Y103.099 E0.0642
G1 X82.142 Y103.040 E0.0684
G1 X81.577 Y103.040 E0.0966
G1 X81.548 Y103.069 E0.0986
G92 E0.0000
G1 E-2.0000 F1800
G1 X82.072 Y107.070 F3600
G1 E0.0000 F1800
G92 E0.0000
G1 X82.492 Y106.651 E0.0296 F1440
G1 X83.057 Y106.651 E0.0578
G1 X82.072 Y107.635 E0.1273
G1 X82.072 Y108.201 E0.1555
G1 X83.623 Y106.651 E0.2649
G1 X84.189 Y106.651 E0.2931
G1 X82.072 Y108.767 E0.4424
G1 X82.072 Y109.332 E0.4706
G1 X84.754 Y106.651 E0.6598
G1 X85.192 Y106.651 E0.6817
G1 X85.192 Y106.778 E0.6881
G1 X82.200 Y109.771 E0.8992
G1 X82.766 Y109.771 E0.9274
G1 X85.192 Y107.344 E1.0987
G1 X85.192 Y107.909 E1.1269
G1 X83.331 Y109.771 E1.2582
G1 X83.897 Y109.771 E1.2864
G1 X85.192 Y108.475 E1.3778
G1 X85.192 Y109.041 E1.4060
G1 X84.463 Y109.771 E1.4575
G1 X85.028 Y109.771 E1.4857
G1 X85.192 Y109.607 E1.4973
G92 E0.0000
G1 E-2.0000 F1800
G1 X85.532 Y119.521 F3600
G1 E0.0000 F1800
G92 E0.0000
G1 X85.532 Y123.321 E0.1896 F1530
G1 X81.732 Y123.321 E0.3792
G1 X81.732 Y119.521 E0.5687
G1 X85.532 Y119.521 E0.7583
G1 X85.332 Y119.121 F3600
G92 E0.0000
G1 X85.332 Y116.325 E0.1395 F1260
G1 X84.189 Y116.538 E0.1975
G1 X83.347 Y116.634 E0.2398
G1 X82.500 Y116.666 E0.2821
G1 X81.653 Y116.634 E0.3244
G1 X80.811 Y116.538 E0.3666
G1 X79.979 Y116.378 E0.4089
G1 X79.161 Y116.156 E0.4512
G1 X78.468 Y115.911 E0.4879
G1 X85.933 Y115.911 E0.8603
G1 X85.933 Y123.721 E1.2500
G1 X81.332 Y123.721 E1.4795
G1 X81.332 Y119.121 E1.7090
G1 X85.332 Y119.121 E1.9085
G92 E0.0000
G1 E-2.0000 F1800
G1 X83.640 Y116.251 F3600
G1 E0.0000 F1800
G92 E0.0000
G1 X83.631 Y116.259 E0.0006 F1800
G1 X83.321 Y116.294 E0.0162
G1 X83.019 Y116.306 E0.0313
G1 X83.074 Y116.251 E0.0352
G1 X82.508 Y116.251 E0.0634
G1 X82.436 Y116.323 E0.0685
G1 X81.891 Y116.302 E0.0957
G1 X81.943 Y116.251 E0.0994
G1 X81.377 Y116.251 E0.1276
G1 X81.368 Y116.259 E0.1282
G92 E0.0000
G1 E-2.0000 F1800
G1 X82.072 Y120.080 F3600
G1 E0.0000 F1800
G92 E0.0000
G1 X82.292 Y119.861 E0.0155 F1440
G1 X82.857 Y119.861 E0.0437
G1 X82.072 Y120.646 E0.0991
G1 X82.072 Y121.212 E0.1273
G1 X83.423 Y119.861 E0.2226
G1 X83.989 Y119.861 E0.2508
G1 X82.072 Y121.778 E0.3860
G1 X82.072 Y122.343 E0.4142
G1 X84.554 Y119.861 E0.5893
G1 X85.120 Y119.861 E0.6176
G1 X82.072 Y122.909 E0.8326
G1 X82.072 Y122.981 E0.8362
G1 X82.566 Y122.981 E0.8608
G1 X85.192 Y120.355 E1.0461
G1 X85.192 Y120.920 E1.0744
G1 X83.131 Y122.981 E1.2198
G1 X83.697 Y122.981 E1.2480
G1 X85.192 Y121.486 E1.3535
G1 X85.192 Y122.052 E1.3817
G1 X84.263 Y122.981 E1.4473
G1 X84.829 Y122.981 E1.4755
G1 X85.192 Y122.617 E1.5012
G92 E0.0000
G1 E-2.0000 F1800
G1 X95.365 Y123.321 F3600
G1 E0.0000 F1800
G92 E0.0000
G1 X95.365 Y119.521 E0.1896 F1530
G1 X99.165 Y119.521 E0.3792
G1 X99.165 Y123.321 E0.5687
G1 X95.365 Y123.321 E0.7583
G1 X94.965 Y123.721 F3600
G92 E0.0000
G1 X94.965 Y119.121 E0.2295 F1260
G1 X98.965 Y119.121 E0.4291
G1 X98.965 Y116.325 E0.5685
G1 X97.822 Y116.538 E0.6266
G1 X96.979 Y116.634 E0.6689
G1 X96.132 Y116.666 E0.7111
G1 X95.286 Y116.634 E0.7534
G1 X94.444 Y116.538 E0.7957
G1 X93.612 Y116.378 E0.8380
G1 X92.794 Y116.156 E0.8802
G1 X92.100 Y115.911 E0.9169
G1 X99.565 Y115.911 E1.2894
G1 X99.565 Y123.721 E1.6790
G1 X94.965 Y123.721 E1.9085
G92 E0.0000
G1 E-2.0000 F1800
G1 X94.951 Y116.253 F3600
G1 E0.0000 F1800
G92 E0.0000
G1 X95.519 Y116.251 E0.0284 F1800
G1 X95.469 Y116.300 E0.0319
G1 X96.014 Y116.321 E0.0591
G1 X96.085 Y116.251 E0.0641
G1 X96.650 Y116.251 E0.0923
G1 X96.593 Y116.308 E0.0964
G1 X96.954 Y116.294 E0.1144
G1 X97.200 Y116.266 E0.1268
G1 X97.216 Y116.251 E0.1279
G92 E0.0000
G1 E-2.0000 F1800
G1 X95.705 Y120.024 F3600
G1 E0.0000 F1800
G92 E0.0000
G1 X95.868 Y119.861 E0.0115 F1440
G1 X96.434 Y119.861 E0.0397
G1 X95.705 Y120.590 E0.0912
G1 X95.705 Y121.156 E0.1194
G1 X97.000 Y119.861 E0.2107
G1 X97.565 Y119.861 E0.2389
G1 X95.705 Y121.721 E0.3702
G1 X95.705 Y122.287 E0.3984
G1 X98.131 Y119.861 E0.5696
G1 X98.697 Y119.861 E0.5978
G1 X95.705 Y122.853 E0.8088
G1 X95.705 Y122.981 E0.8153
G1 X96.142 Y122.981 E0.8371
G1 X98.825 Y120.298 E1.0264
G1 X98.825 Y120.864 E1.0546
G1 X96.708 Y122.981 E1.2039
G1 X97.274 Y122.981 E1.2322
G1 X98.825 Y121.430 E1.3416
G1 X98.825 Y121.996 E1.3699
G1 X97.839 Y122.981 E1.4394
G1 X98.405 Y122.981 E1.4676
G1 X98.825 Y122.561 E1.4973
G92 E0.0000
G1 E-2.0000 F1800
G1 X99.165 Y110.111 F3600
G1 E0.0000 F1800
G92 E0.0000
G1 X95.365 Y110.111 E0.1896 F1530
G1 X95.365 Y106.311 E0.3792
G1 X99.165 Y106.311 E0.5687
G1 X99.165 Y110.111 E0.7583
G1 X99.565 Y110.511 F3600
G92 E0.0000
G1 X94.965 Y110.511 E0.2295 F1260
G1 X94.965 Y105.911 E0.4590
G1 X98.965 Y105.911 E0.6586
G1 X98.965 Y103.115 E0.7980
G1 X97.822 Y103.327 E0.8561
G1 X96.979 Y103.423 E0.8984
G1 X96.132 Y103.455 E0.9406
G1 X95.286 Y103.423 E0.9829
G1 X94.444 Y103.327 E1.0252
G1 X93.612 Y103.168 E1.0675
G1 X92.794 Y102.946 E1.1097
G1 X92.100 Y102.700 E1.1464
G1 X99.565 Y102.700 E1.5189
G1 X99.565 Y110.511 E1.9085
G92 E0.0000
G1 E-2.0000 F1800
G1 X96.801 Y103.090 F3600
G1 E0.0000 F1800
G92 E0.0000
G1 X96.850 Y103.040 E0.0035 F1800
G1 X96.285 Y103.040 E0.0317
G1 X96.213 Y103.112 E0.0368
G1 X96.132 Y103.115 E0.0408
G1 X95.662 Y103.097 E0.0643
G1 X95.719 Y103.040 E0.0683
G1 X95.153 Y103.040 E0.0965
G1 X95.130 Y103.063 E0.0982
G92 E0.0000
G1 E-2.0000 F1800
G1 X95.705 Y107.014 F3600
G1 E0.0000 F1800
G92 E0.0000
G1 X96.068 Y106.651 E0.0256 F1440
G1 X96.634 Y106.651 E0.0538
G1 X95.705 Y107.579 E0.1194
G1 X95.705 Y108.145 E0.1476
G1 X97.199 Y106.651 E0.2530
G1 X97.765 Y106.651 E0.2812
G1 X95.705 Y108.711 E0.4266
G1 X95.705 Y109.276 E0.4548
G1 X98.331 Y106.651 E0.6401
G1 X98.825 Y106.651 E0.6647
G1 X98.825 Y106.722 E0.6683
G1 X95.776 Y109.771 E0.8834
G1 X96.342 Y109.771 E0.9116
G1 X98.825 Y107.288 E1.0868
G1 X98.825 Y107.853 E1.1150
G1 X96.908 Y109.771 E1.2503
G1 X97.473 Y109.771 E1.2785
G1 X98.825 Y108.419 E1.3739
G1 X98.825 Y108.985 E1.4021
G1 X98.039 Y109.771 E1.4575
G1 X98.605 Y109.771 E1.4857
G1 X98.825 Y109.550 E1.5013
G92 E0.0000
G1 E-2.0000 F1800
G1 X99.165 Y96.900 F3600
G1 E0.0000 F1800
G92 E0.0000
G1 X95.365 Y96.900 E0.1896 F1530
G1 X95.365 Y93.100 E0.3792
G1 X99.165 Y93.100 E0.5687
G1 X99.165 Y96.900 E0.7583
G1 X99.565 Y97.300 F3600
G92 E0.0000
G1 X94.965 Y97.300 E0.2295 F1260
G1 X94.965 Y92.700 E0.4590
G1 X98.965 Y92.700 E0.6586
G1 X98.965 Y89.904 E0.7980
G1 X97.822 Y90.116 E0.8561
G1 X96.979 Y90.212 E0.8984
G1 X96.132 Y90.244 E0.9406
G1 X95.286 Y90.212 E0.9829
G1 X94.444 Y90.116 E1.0252
G1 X93.612 Y89.957 E1.0675
G1 X92.794 Y89.735 E1.1097
G1 X92.100 Y89.489 E1.1464
G1 X99.565 Y89.489 E1.5189
G1 X99.565 Y97.300 E1.9085
G92 E0.0000
G1 E-2.0000 F1800
G1 X97.013 Y89.866 F3600
G1 E0.0000 F1800
G92 E0.0000
G1 X97.050 Y89.829 E0.0026 F1800
G1 X96.484 Y89.829 E0.0308
G1 X96.420 Y89.893 E0.0353
G1 X96.132 Y89.904 E0.0497
G1 X95.854 Y89.894 E0.0636
G1 X95.919 Y89.829 E0.0681
G1 X95.353 Y89.829 E0.0964
G1 X95.309 Y89.873 E0.0994
G92 E0.0000
G1 E-2.0000 F1800
G1 X95.705 Y94.003 F3600
G1 E0.0000 F1800
G92 E0.0000
G1 X96.268 Y93.440 E0.0397 F1440
G1 X96.834 Y93.440 E0.0679
G1 X95.705 Y94.569 E0.1476
G1 X95.705 Y95.134 E0.1758
G1 X97.399 Y93.440 E0.2953
G1 X97.965 Y93.440 E0.3235
G1 X95.705 Y95.700 E0.4830
G1 X95.705 Y96.266 E0.5112
G1 X98.531 Y93.440 E0.7106
G1 X98.825 Y93.440 E0.7253
G1 X98.825 Y93.711 E0.7388
G1 X95.976 Y96.560 E0.9398
G1 X96.542 Y96.560 E0.9680
G1 X98.825 Y94.277 E1.1291
G1 X98.825 Y94.843 E1.1573
G1 X97.108 Y96.560 E1.2785
G1 X97.673 Y96.560 E1.3067
G1 X98.825 Y95.408 E1.3880
G1 X98.825 Y95.974 E1.4162
G1 X98.239 Y96.560 E1.4575
G1 X98.805 Y96.560 E1.4857
G1 X98.825 Y96.540 E1.4872
G92 E0.0000
G1 E-2.0000 F1800
G1 X99.165 Y83.689 F3600
G1 E0.0000 F1800
G92 E0.0000
G1 X95.365 Y83.689 E0.1896 F1530
G1 X95.365 Y79.889 E0.3792
G1 X99.165 Y79.889 E0.5687
G1 X99.165 Y83.689 E0.7583
G1 X99.565 Y84.089 F3600
G92 E0.0000
G1 X94.965 Y84.089 E0.2295 F1260
G1 X94.965 Y79.489 E0.4590
G1 X98.965 Y79.489 E0.6586
G1 X98.965 Y76.694 E0.7980
G1 X97.822 Y76.906 E0.8561
G1 X96.979 Y77.002 E0.8984
G1 X96.132 Y77.034 E0.9406
G1 X95.286 Y77.002 E0.9829
G1 X94.444 Y76.906 E1.0252
G1 X93.612 Y76.746 E1.0675
G1 X92.794 Y76.525 E1.1097
G1 X92.100 Y76.279 E1.1464
G1 X99.565 Y76.279 E1.5188
G1 X99.565 Y84.089 E1.9085
G92 E0.0000
G1 E-2.0000 F1800
G1 X97.250 Y76.619 F3600
G1 E0.0000 F1800
G92 E0.0000
G1 X97.239 Y76.630 E0.0008 F1800
G1 X96.954 Y76.663 E0.0151
G1 X96.628 Y76.675 E0.0314
G1 X96.684 Y76.619 E0.0353
G1 X96.119 Y76.619 E0.0635
G1 X96.047 Y76.690 E0.0686
G1 X95.502 Y76.670 E0.0958
G1 X95.553 Y76.619 E0.0994
G1 X94.987 Y76.619 E0.1276
G1 X94.981 Y76.625 E0.1280
G92 E0.0000
G1 E-2.0000 F1800
G1 X95.705 Y80.426 F3600
G1 E0.0000 F1800
G92 E0.0000
G1 X95.902 Y80.229 E0.0139 F1440
G1 X96.468 Y80.229 E0.0421
G1 X95.705 Y80.992 E0.0959
G1 X95.705 Y81.558 E0.1242
G1 X97.033 Y80.229 E0.2179
G1 X97.599 Y80.229 E0.2461
G1 X95.705 Y82.123 E0.3797
G1 X95.705 Y82.689 E0.4080
G1 X98.165 Y80.229 E0.5815
G1 X98.730 Y80.229 E0.6097
G1 X95.705 Y83.255 E0.8232
G1 X95.705 Y83.349 E0.8279
G1 X96.176 Y83.349 E0.8514
G1 X98.825 Y80.701 E1.0383
G1 X98.825 Y81.266 E1.0665
G1 X96.742 Y83.349 E1.2135
G1 X97.308 Y83.349 E1.2417
G1 X98.825 Y81.832 E1.3488
G1 X98.825 Y82.398 E1.3770
G1 X97.873 Y83.349 E1.4442
G1 X98.439 Y83.349 E1.4724
G1 X98.825 Y82.963 E1.4996
G92 E0.0000
G1 E-2.0000 F1800
G1 X85.532 Y83.689 F3600
G1 E0.0000 F1800
G92 E0.0000
G1 X81.732 Y83.689 E0.1896 F1530
G1 X81.732 Y79.889 E0.3792
G1 X85.532 Y79.889 E0.5687
G1 X85.532 Y83.689 E0.7583
G1 X85.933 Y84.089 F3600
G92 E0.0000
G1 X81.332 Y84.089 E0.2295 F1260
G1 X81.332 Y79.489 E0.4590
G1 X85.332 Y79.489 E0.6586
G1 X85.332 Y76.694 E0.7980
G1 X84.189 Y76.906 E0.8561
G1 X83.347 Y77.002 E0.8984
G1 X82.500 Y77.034 E0.9406
G1 X81.653 Y77.002 E0.9829
G1 X80.811 Y76.906 E1.0252
G1 X79.979 Y76.746 E1.0675
G1 X79.161 Y76.525 E1.1097
G1 X78.468 Y76.279 E1.1464
G1 X85.933 Y76.279 E1.5188
G1 X85.933 Y84.089 E1.9085
G92 E0.0000
G1 E-2.0000 F1800
G1 X83.673 Y76.619 F3600
G1 E0.0000 F1800
G92 E0.0000
G1 X83.669 Y76.623 E0.0003 F1800
G1 X83.321 Y76.663 E0.0178
G1 X83.054 Y76.673 E0.0311
G1 X83.108 Y76.619 E0.0349
G1 X82.542 Y76.619 E0.0631
G1 X82.468 Y76.692 E0.0683
G1 X81.923 Y76.672 E0.0955
G1 X81.976 Y76.619 E0.0993
G1 X81.411 Y76.619 E0.1275
G1 X81.399 Y76.631 E0.1283
G92 E0.0000
G1 E-2.0000 F1800
G1 X82.072 Y80.482 F3600
G1 E0.0000 F1800
G92 E0.0000
G1 X82.326 Y80.229 E0.0179 F1440
G1 X82.891 Y80.229 E0.0461
G1 X82.072 Y81.048 E0.1038
G1 X82.072 Y81.614 E0.1321
G1 X83.457 Y80.229 E0.2298
G1 X84.023 Y80.229 E0.2580
G1 X82.072 Y82.180 E0.3956
G1 X82.072 Y82.745 E0.4238
G1 X84.588 Y80.229 E0.6013
G1 X85.154 Y80.229 E0.6295
G1 X82.072 Y83.311 E0.8469
G1 X82.072 Y83.349 E0.8489
G1 X82.600 Y83.349 E0.8752
G1 X85.192 Y80.757 E1.0581
G1 X85.192 Y81.322 E1.0863
G1 X83.165 Y83.349 E1.2293
G1 X83.731 Y83.349 E1.2576
G1 X85.192 Y81.888 E1.3607
G1 X85.192 Y82.454 E1.3889
G1 X84.297 Y83.349 E1.4521
G1 X84.862 Y83.349 E1.4803
G1 X85.192 Y83.019 E1.5036
G92 E0.0000
G1 E-2.0000 F1800
G1 X85.532 Y93.100 F3600
G1 E0.0000 F1800
G92 E0.0000
G1 X85.532 Y96.900 E0.1896 F1530
G1 X81.732 Y96.900 E0.3792
G1 X81.732 Y93.100 E0.5687
G1 X85.532 Y93.100 E0.7583
G1 X85.332 Y92.700 F3600
G92 E0.0000
G1 X85.332 Y89.904 E0.1395 F1260
G1 X84.189 Y90.116 E0.1975
G1 X83.347 Y90.212 E0.2398
G1 X82.500 Y90.244 E0.2821
G1 X81.653 Y90.212 E0.3244
G1 X80.811 Y90.116 E0.3666
G1 X79.979 Y89.957 E0.4089
G1 X79.161 Y89.735 E0.4512
G1 X78.468 Y89.489 E0.4879
G1 X85.933 Y89.489 E0.8603
G1 X85.933 Y97.300 E1.2500
G1 X81.332 Y97.300 E1.4795
G1 X81.332 Y92.700 E1.7090
G1 X85.332 Y92.700 E1.9085
G92 E0.0000
G1 E-2.0000 F1800
G1 X83.444 Y89.859 F3600
G1 E0.0000 F1800
G92 E0.0000
G1 X83.474 Y89.829 E0.0021 F1800
G1 X82.908 Y89.829 E0.0303
G1 X82.846 Y89.891 E0.0347
G1 X82.500 Y89.904 E0.0520
G1 X82.276 Y89.896 E0.0632
G1 X82.342 Y89.829 E0.0678
G1 X81.777 Y89.829 E0.0961
G1 X81.731 Y89.875 E0.0993
G92 E0.0000
G1 E-2.0000 F1800
G1 X82.072 Y93.493 F3600
G1 E0.0000 F1800
G92 E0.0000
G1 X82.126 Y93.440 E0.0038 F1440
G1 X82.691 Y93.440 E0.0320
G1 X82.072 Y94.059 E0.0756
G1 X82.072 Y94.625 E0.1039
G1 X83.257 Y93.440 E0.1874
G1 X83.823 Y93.440 E0.2157
G1 X82.072 Y95.190 E0.3392
G1 X82.072 Y95.756 E0.3674
G1 X84.388 Y93.440 E0.5308
G1 X84.954 Y93.440 E0.5590
G1 X82.072 Y96.322 E0.7623
G1 X82.072 Y96.560 E0.7742
G1 X82.400 Y96.560 E0.7905
G1 X85.192 Y93.767 E0.9876
G1 X85.192 Y94.333 E1.0158
G1 X82.966 Y96.560 E1.1729
G1 X83.531 Y96.560 E1.2012
G1 X85.192 Y94.899 E1.3184
G1 X85.192 Y95.464 E1.3466
G1 X84.097 Y96.560 E1.4239
G1 X84.663 Y96.560 E1.4521
G1 X85.192 Y96.030 E1.4895
G92 E0.0000
G1 E-2.0000 F1800
G1 X71.900 Y96.900 F3600
G1 E0.0000 F1800
G92 E0.0000
G1 X68.100 Y96.900 E0.1896 F1530
G1 X68.100 Y93.100 E0.3792
G1 X71.900 Y93.100 E0.5687
G1 X71.900 Y96.900 E0.7583
G1 X72.300 Y97.300 F3600
G92 E0.0000
G1 X67.700 Y97.300 E0.2295 F1260
G1 X67.700 Y92.700 E0.4590
G1 X71.700 Y92.700 E0.6586
G1 X71.700 Y89.904 E0.7980
G1 X70.557 Y90.116 E0.8561
G1 X69.714 Y90.212 E0.8984
G1 X68.867 Y90.244 E0.9406
G1 X68.021 Y90.212 E0.9829
G1 X67.179 Y90.116 E1.0252
G1 X66.347 Y89.957 E1.0674
G1 X65.529 Y89.735 E1.1097
G1 X64.835 Y89.489 E1.1464
G1 X72.300 Y89.489 E1.5189
G1 X72.300 Y97.300 E1.9085
G92 E0.0000
G1 E-2.0000 F1800
G1 X69.875 Y89.852 F3600
G1 E0.0000 F1800
G92 E0.0000
G1 X69.897 Y89.829 E0.0016 F1800
G1 X69.331 Y89.829 E0.0298
G1 X69.272 Y89.889 E0.0340
G1 X68.867 Y89.904 E0.0542
G1 X68.697 Y89.898 E0.0627
G1 X68.766 Y89.829 E0.0675
G1 X68.200 Y89.829 E0.0958
G1 X68.152 Y89.877 E0.0991
G92 E0.0000
G1 E-2.0000 F1800
G1 X68.440 Y93.549 F3600
G1 E0.0000 F1800
G92 E0.0000
G1 X68.549 Y93.440 E0.0077 F1440
G1 X69.115 Y93.440 E0.0359
G1 X68.440 Y94.115 E0.0836
G1 X68.440 Y94.681 E0.1118
G1 X69.681 Y93.440 E0.1993
G1 X70.246 Y93.440 E0.2275
G1 X68.440 Y95.246 E0.3550
G1 X68.440 Y95.812 E0.3832
G1 X70.812 Y93.440 E0.5506
G1 X71.378 Y93.440 E0.5788
G1 X68.440 Y96.378 E0.7861
G1 X68.440 Y96.560 E0.7951
G1 X68.823 Y96.560 E0.8143
G1 X71.560 Y93.823 E1.0074
G1 X71.560 Y94.389 E1.0356
G1 X69.389 Y96.560 E1.1887
G1 X69.955 Y96.560 E1.2170
G1 X71.560 Y94.955 E1.3302
G1 X71.560 Y95.520 E1.3585
G1 X70.520 Y96.560 E1.4318
G1 X71.086 Y96.560 E1.4600
G1 X71.560 Y96.086 E1.4935
G92 E0.0000
G1 E-2.0000 F1800
G1 X71.900 Y106.311 F3600
G1 E0.0000 F1800
G92 E0.0000
G1 X71.900 Y110.111 E0.1896 F1530
G1 X68.100 Y110.111 E0.3792
G1 X68.100 Y106.311 E0.5687
G1 X71.900 Y106.311 E0.7583
G1 X71.700 Y105.911 F3600
G92 E0.0000
G1 X71.700 Y103.115 E0.1395 F1260
G1 X70.557 Y103.327 E0.1975
G1 X69.714 Y103.423 E0.2398
G1 X68.867 Y103.455 E0.2821
G1 X68.021 Y103.423 E0.3244
G1 X67.179 Y103.327 E0.3666
G1 X66.347 Y103.168 E0.4089
G1 X65.529 Y102.946 E0.4512
G1 X64.835 Y102.700 E0.4879
G1 X72.300 Y102.700 E0.8603
G1 X72.300 Y110.511 E1.2500
G1 X67.700 Y110.511 E1.4795
G1 X67.700 Y105.911 E1.7090
G1 X71.700 Y105.911 E1.9085
G92 E0.0000
G1 E-2.0000 F1800
G1 X69.652 Y103.085 F3600
G1 E0.0000 F1800
G92 E0.0000
G1 X69.697 Y103.040 E0.0032 F1800
G1 X69.132 Y103.040 E0.0314
G1 X69.064 Y103.107 E0.0362
G1 X68.867 Y103.115 E0.0460
G1 X68.505 Y103.101 E0.0641
G1 X68.566 Y103.040 E0.0684
G1 X68.000 Y103.040 E0.0966
G1 X67.966 Y103.075 E0.0991
G92 E0.0000
G1 E-2.0000 F1800
G1 X68.440 Y107.126 F3600
G1 E0.0000 F1800
G92 E0.0000
G1 X68.915 Y106.651 E0.0335 F1440
G1 X69.481 Y106.651 E0.0617
G1 X68.440 Y107.691 E0.1352
G1 X68.440 Y108.257 E0.1634
G1 X70.046 Y106.651 E0.2767
G1 X70.612 Y106.651 E0.3050
G1 X68.440 Y108.823 E0.4582
G1 X68.440 Y109.388 E0.4864
G1 X71.178 Y106.651 E0.6796
G1 X71.560 Y106.651 E0.6987
G1 X71.560 Y106.834 E0.7078
G1 X68.624 Y109.771 E0.9150
G1 X69.189 Y109.771 E0.9432
G1 X71.560 Y107.400 E1.1105
G1 X71.560 Y107.966 E1.1387
G1 X69.755 Y109.771 E1.2661
G1 X70.321 Y109.771 E1.2943
G1 X71.560 Y108.531 E1.3818
G1 X71.560 Y109.097 E1.4100
G1 X70.886 Y109.771 E1.4575
G1 X71.452 Y109.771 E1.4857
G1 X71.560 Y109.663 E1.4934
G92 E0.0000
G1 E-2.0000 F1800
G1 X71.900 Y119.521 F3600
G1 E0.0000 F1800
G92 E0.0000
G1 X71.900 Y123.321 E0.1896 F1530
G1 X68.100 Y123.321 E0.3792
G1 X68.100 Y119.521 E0.5687
G1 X71.900 Y119.521 E0.7583
G1 X71.700 Y119.121 F3600
G92 E0.0000
G1 X71.700 Y116.325 E0.1395 F1260
G1 X70.557 Y116.538 E0.1975
G1 X69.714 Y116.634 E0.2398
G1 X68.867 Y116.666 E0.2821
G1 X68.021 Y116.634 E0.3244
G1 X67.179 Y116.538 E0.3666
G1 X66.347 Y116.378 E0.4089
G1 X65.529 Y116.156 E0.4512
G1 X64.835 Y115.911 E0.4879
G1 X72.300 Y115.911 E0.8603
G1 X72.300 Y123.721 E1.2500
G1 X67.700 Y123.721 E1.4795
G1 X67.700 Y119.121 E1.7090
G1 X71.700 Y119.121 E1.9085
G92 E0.0000
G1 E-2.0000 F1800
G1 X70.063 Y116.251 F3600
G1 E0.0000 F1800
G92 E0.0000
G1 X69.689 Y116.294 E0.0188 F1800
G1 X69.444 Y116.304 E0.0310
G1 X69.497 Y116.251 E0.0348
G1 X68.932 Y116.251 E0.0630
G1 X68.857 Y116.325 E0.0682
G1 X68.312 Y116.304 E0.0955
G1 X68.366 Y116.251 E0.0992
G1 X67.800 Y116.251 E0.1275
G1 X67.786 Y116.265 E0.1285
G92 E0.0000
G1 E-2.0000 F1800
G1 X68.440 Y120.136 F3600
G1 E0.0000 F1800
G92 E0.0000
G1 X68.715 Y119.861 E0.0194 F1440
G1 X69.281 Y119.861 E0.0476
G1 X68.440 Y120.702 E0.1070
G1 X68.440 Y121.268 E0.1352
G1 X69.847 Y119.861 E0.2344
G1 X70.412 Y119.861 E0.2627
G1 X68.440 Y121.834 E0.4018
G1 X68.440 Y122.399 E0.4300
G1 X70.978 Y119.861 E0.6091
G1 X71.544 Y119.861 E0.6373
G1 X68.440 Y122.965 E0.8563
G1 X68.440 Y122.981 E0.8571
G1 X68.989 Y122.981 E0.8845
G1 X71.560 Y120.411 E1.0659
G1 X71.560 Y120.976 E1.0941
G1 X69.555 Y122.981 E1.2356
G1 X70.121 Y122.981 E1.2638
G1 X71.560 Y121.542 E1.3654
G1 X71.560 Y122.108 E1.3936
G1 X70.686 Y122.981 E1.4552
G1 X71.252 Y122.981 E1.4834
G1 X71.560 Y122.673 E1.5052
G92 E0.0000
G1 E-2.0000 F1800
G1 X58.267 Y123.321 F3600
G1 E0.0000 F1800
G92 E0.0000
G1 X54.467 Y123.321 E0.1896 F1530
G1 X54.467 Y119.521 E0.3792
G1 X58.267 Y119.521 E0.5687
G1 X58.267 Y123.321 E0.7583
G1 X58.667 Y123.721 F3600
G92 E0.0000
G1 X54.067 Y123.721 E0.2295 F1260
G1 X54.067 Y119.121 E0.4590
G1 X58.067 Y119.121 E0.6586
G1 X58.067 Y116.325 E0.7980
G1 X56.924 Y116.538 E0.8561
G1 X56.082 Y116.634 E0.8983
G1 X55.235 Y116.666 E0.9406
G1 X54.388 Y116.634 E0.9829
G1 X53.546 Y116.538 E1.0252
G1 X52.714 Y116.378 E1.0675
G1 X51.896 Y116.156 E1.1097
G1 X51.203 Y115.911 E1.1464
G1 X58.667 Y115.911 E1.5189
G1 X58.667 Y123.721 E1.9085
G92 E0.0000
G1 E-2.0000 F1800
G1 X55.870 Y116.301 F3600
G1 E0.0000 F1800
G92 E0.0000
G1 X55.921 Y116.251 E0.0036 F1800
G1 X55.355 Y116.251 E0.0318
G1 X55.282 Y116.324 E0.0370
G1 X55.235 Y116.325 E0.0393
G1 X54.734 Y116.307 E0.0643
G1 X54.790 Y116.251 E0.0683
G1 X54.224 Y116.251 E0.0965
G1 X54.204 Y116.270 E0.0979
G92 E0.0000
G1 E-2.0000 F1800
G1 X54.807 Y120.193 F3600
G1 E0.0000 F1800
G92 E0.0000
G1 X55.139 Y119.861 E0.0234 F1440
G1 X55.704 Y119.861 E0.0516
G1 X54.807 Y120.758 E0.1149
G1 X54.807 Y121.324 E0.1431
G1 X56.270 Y119.861 E0.2463
G1 X56.836 Y119.861 E0.2745
G1 X54.807 Y121.890 E0.4176
G1 X54.807 Y122.455 E0.4459
G1 X57.402 Y119.861 E0.6289
G1 X57.927 Y119.861 E0.6551
G1 X57.927 Y119.901 E0.6571
G1 X54.847 Y122.981 E0.8744
G1 X55.413 Y122.981 E0.9027
G1 X57.927 Y120.467 E1.0801
G1 X57.927 Y121.032 E1.1083
G1 X55.979 Y122.981 E1.2458
G1 X56.544 Y122.981 E1.2740
G1 X57.927 Y121.598 E1.3716
G1 X57.927 Y122.164 E1.3998
G1 X57.110 Y122.981 E1.4575
G1 X57.676 Y122.981 E1.4857
G1 X57.927 Y122.729 E1.5035
G92 E0.0000
G1 E-2.0000 F1800
G1 X58.267 Y110.111 F3600
G1 E0.0000 F1800
G92 E0.0000
G1 X54.467 Y110.111 E0.1896 F1530
G1 X54.467 Y106.311 E0.3792
G1 X58.267 Y106.311 E0.5687
G1 X58.267 Y110.111 E0.7583
G1 X58.667 Y110.511 F3600
G92 E0.0000
G1 X54.067 Y110.511 E0.2295 F1260
G1 X54.067 Y105.911 E0.4590
G1 X58.067 Y105.911 E0.6586
G1 X58.067 Y103.115 E0.7980
G1 X56.924 Y103.327 E0.8561
G1 X56.082 Y103.423 E0.8984
G1 X55.235 Y103.455 E0.9406
G1 X54.388 Y103.423 E0.9829
G1 X53.546 Y103.327 E1.0252
G1 X52.714 Y103.168 E1.0675
G1 X51.896 Y102.946 E1.1097
G1 X51.203 Y102.700 E1.1464
G1 X58.667 Y102.700 E1.5189
G1 X58.667 Y110.511 E1.9085
G92 E0.0000
G1 E-2.0000 F1800
G1 X56.080 Y103.081 F3600
G1 E0.0000 F1800
G92 E0.0000
G1 X56.121 Y103.040 E0.0029 F1800
G1 X55.555 Y103.040 E0.0311
G1 X55.490 Y103.105 E0.0357
G1 X55.235 Y103.115 E0.0484
G1 X54.926 Y103.103 E0.0639
G1 X54.989 Y103.040 E0.0683
G1 X54.424 Y103.040 E0.0965
G1 X54.383 Y103.080 E0.0994
G92 E0.0000
G1 E-2.0000 F1800
G1 X54.807 Y107.182 F3600
G1 E0.0000 F1800
G92 E0.0000
G1 X55.339 Y106.651 E0.0375 F1440
G1 X55.904 Y106.651 E0.0657
G1 X54.807 Y107.747 E0.1431
G1 X54.807 Y108.313 E0.1713
G1 X56.470 Y106.651 E0.2886
G1 X57.036 Y106.651 E0.3168
G1 X54.807 Y108.879 E0.4740
G1 X54.807 Y109.445 E0.5023
G1 X57.601 Y106.651 E0.6994
G1 X57.927 Y106.651 E0.7157
G1 X57.927 Y106.890 E0.7276
G1 X55.047 Y109.771 E0.9308
G1 X55.613 Y109.771 E0.9591
G1 X57.927 Y107.456 E1.1224
G1 X57.927 Y108.022 E1.1506
G1 X56.178 Y109.771 E1.2740
G1 X56.744 Y109.771 E1.3022
G1 X57.927 Y108.587 E1.3857
G1 X57.927 Y109.153 E1.4139
G1 X57.310 Y109.771 E1.4575
G1 X57.876 Y109.771 E1.4857
G1 X57.927 Y109.719 E1.4894
G92 E0.0000
G1 E-2.0000 F1800
G1 X58.267 Y96.900 F3600
G1 E0.0000 F1800
G92 E0.0000
G1 X54.467 Y96.900 E0.1896 F1530
G1 X54.467 Y93.100 E0.3792
G1 X58.267 Y93.100 E0.5687
G1 X58.267 Y96.900 E0.7583
G1 X58.667 Y97.300 F3600
G92 E0.0000
G1 X54.067 Y97.300 E0.2295 F1260
G1 X54.067 Y92.700 E0.4590
G1 X58.067 Y92.700 E0.6586
G1 X58.067 Y89.904 E0.7980
G1 X56.924 Y90.116 E0.8561
G1 X56.082 Y90.212 E0.8984
G1 X55.235 Y90.244 E0.9406
G1 X54.388 Y90.212 E0.9829
G1 X53.546 Y90.116 E1.0252
G1 X52.714 Y89.957 E1.0674
G1 X51.896 Y89.735 E1.1097
G1 X51.203 Y89.489 E1.1464
G1 X58.667 Y89.489 E1.5189
G1 X58.667 Y97.300 E1.9085
G92 E0.0000
G1 E-2.0000 F1800
G1 X56.321 Y89.829 F3600
G1 E0.0000 F1800
G92 E0.0000
G1 X56.305 Y89.845 E0.0011 F1800
G1 X56.056 Y89.873 E0.0136
G1 X55.698 Y89.887 E0.0315
G1 X55.755 Y89.829 E0.0355
G1 X55.189 Y89.829 E0.0638
G1 X55.119 Y89.900 E0.0687
G1 X54.574 Y89.879 E0.0959
G1 X54.624 Y89.829 E0.0995
G1 X54.055 Y89.832 E0.1279
G92 E0.0000
G1 E-2.0000 F1800
G1 X54.807 Y93.605 F3600
G1 E0.0000 F1800
G92 E0.0000
G1 X54.973 Y93.440 E0.0117 F1440
G1 X55.539 Y93.440 E0.0399
G1 X54.807 Y94.171 E0.0915
G1 X54.807 Y94.737 E0.1197
G1 X56.104 Y93.440 E0.2112
G1 X56.670 Y93.440 E0.2394
G1 X54.807 Y95.302 E0.3708
G1 X54.807 Y95.868 E0.3990
G1 X57.236 Y93.440 E0.5703
G1 X57.801 Y93.440 E0.5986
G1 X54.807 Y96.434 E0.8098
G1 X54.807 Y96.560 E0.8161
G1 X55.247 Y96.560 E0.8380
G1 X57.927 Y93.879 E1.0271
G1 X57.927 Y94.445 E1.0554
G1 X55.813 Y96.560 E1.2046
G1 X56.378 Y96.560 E1.2328
G1 X57.927 Y95.011 E1.3421
G1 X57.927 Y95.577 E1.3703
G1 X56.944 Y96.560 E1.4397
G1 X57.510 Y96.560 E1.4679
G1 X57.927 Y96.142 E1.4974
G92 E0.0000
G1 E-2.0000 F1800
G1 X58.267 Y83.689 F3600
G1 E0.0000 F1800
G92 E0.0000
G1 X54.467 Y83.689 E0.1896 F1530
G1 X54.467 Y79.889 E0.3792
G1 X58.267 Y79.889 E0.5687
G1 X58.267 Y83.689 E0.7583
G1 X58.667 Y84.089 F3600
G92 E0.0000
G1 X54.067 Y84.089 E0.2295 F1260
G1 X54.067 Y79.489 E0.4590
G1 X58.067 Y79.489 E0.6586
G1 X58.067 Y76.694 E0.7980
G1 X56.924 Y76.906 E0.8561
G1 X56.082 Y77.002 E0.8984
G1 X55.235 Y77.034 E0.9406
G1 X54.388 Y77.002 E0.9829
G1 X53.546 Y76.906 E1.0252
G1 X52.714 Y76.746 E1.0675
G1 X51.896 Y76.525 E1.1097
G1 X51.203 Y76.279 E1.1464
G1 X58.667 Y76.279 E1.5188
G1 X58.667 Y84.089 E1.9085
G92 E0.0000
G1 E-2.0000 F1800
G1 X55.905 Y76.668 F3600
G1 E0.0000 F1800
G92 E0.0000
G1 X55.955 Y76.619 E0.0035 F1800
G1 X55.389 Y76.619 E0.0317
G1 X55.317 Y76.690 E0.0368
G1 X55.235 Y76.694 E0.0409
G1 X54.766 Y76.676 E0.0643
G1 X54.824 Y76.619 E0.0683
G1 X54.258 Y76.619 E0.0965
G1 X54.234 Y76.642 E0.0982
G92 E0.0000
G1 E-2.0000 F1800
G1 X54.807 Y80.595 F3600
G1 E0.0000 F1800
G92 E0.0000
G1 X55.173 Y80.229 E0.0258 F1440
G1 X55.738 Y80.229 E0.0540
G1 X54.807 Y81.160 E0.1197
G1 X54.807 Y81.726 E0.1479
G1 X56.304 Y80.229 E0.2535
G1 X56.870 Y80.229 E0.2817
G1 X54.807 Y82.292 E0.4272
G1 X54.807 Y82.857 E0.4554
G1 X57.435 Y80.229 E0.6408
G1 X57.927 Y80.229 E0.6654
G1 X57.927 Y80.303 E0.6691
G1 X54.881 Y83.349 E0.8840
G1 X55.447 Y83.349 E0.9122
G1 X57.927 Y80.869 E1.0873
G1 X57.927 Y81.434 E1.1155
G1 X56.012 Y83.349 E1.2506
G1 X56.578 Y83.349 E1.2788
G1 X57.927 Y82.000 E1.3740
G1 X57.927 Y82.566 E1.4022
G1 X57.144 Y83.349 E1.4575
G1 X57.710 Y83.349 E1.4857
G1 X57.927 Y83.131 E1.5011
G92 E0.0000
G1 E-2.0000 F1800
G1 X68.100 Y83.689 F3600
G1 E0.0000 F1800
G92 E0.0000
G1 X68.100 Y79.889 E0.1896 F1530
G1 X71.900 Y79.889 E0.3792
G1 X71.900 Y83.689 E0.5687
G1 X68.100 Y83.689 E0.7583
G1 X67.700 Y84.089 F3600
G92 E0.0000
G1 X67.700 Y79.489 E0.2295 F1260
G1 X71.700 Y79.489 E0.4291
G1 X71.700 Y76.694 E0.5685
G1 X70.557 Y76.906 E0.6266
G1 X69.714 Y77.002 E0.6689
G1 X68.867 Y77.034 E0.7111
G1 X68.021 Y77.002 E0.7534
G1 X67.179 Y76.906 E0.7957
G1 X66.347 Y76.746 E0.8380
G1 X65.529 Y76.525 E0.8802
G1 X64.835 Y76.279 E0.9169
G1 X72.300 Y76.279 E1.2894
G1 X72.300 Y84.089 E1.6790
G1 X67.700 Y84.089 E1.9085
G92 E0.0000
G1 E-2.0000 F1800
G1 X67.817 Y76.636 F3600
G1 E0.0000 F1800
G92 E0.0000
G1 X67.834 Y76.619 E0.0012 F1800
G1 X68.400 Y76.619 E0.0295
G1 X68.345 Y76.674 E0.0333
G1 X68.867 Y76.694 E0.0594
G1 X68.892 Y76.693 E0.0606
G1 X68.966 Y76.619 E0.0659
G1 X69.531 Y76.619 E0.0941
G1 X69.480 Y76.670 E0.0977
G92 E0.0000
G1 E-2.0000 F1800
G1 X68.440 Y80.539 F3600
G1 E0.0000 F1800
G92 E0.0000
G1 X68.749 Y80.229 E0.0218 F1440
G1 X69.315 Y80.229 E0.0500
G1 X68.440 Y81.104 E0.1118
G1 X68.440 Y81.670 E0.1400
G1 X69.881 Y80.229 E0.2416
G1 X70.446 Y80.229 E0.2698
G1 X68.440 Y82.236 E0.4114
G1 X68.440 Y82.801 E0.4396
G1 X71.012 Y80.229 E0.6211
G1 X71.560 Y80.229 E0.6484
G1 X71.560 Y80.247 E0.6493
G1 X68.458 Y83.349 E0.8682
G1 X69.023 Y83.349 E0.8964
G1 X71.560 Y80.813 E1.0754
G1 X71.560 Y81.378 E1.1036
G1 X69.589 Y83.349 E1.2427
G1 X70.155 Y83.349 E1.2709
G1 X71.560 Y81.944 E1.3701
G1 X71.560 Y82.510 E1.3983
G1 X70.720 Y83.349 E1.4575
G1 X71.286 Y83.349 E1.4857
G1 X71.560 Y83.075 E1.5051
G92 E0.0000
G1 E-2.0000 F1800
G1 Z2.610 F2400
G1 X71.900 Y83.689 F3600
G1 E0.0000 F1800
G92 E0.0000
G1 X68.100 Y83.689 E0.1896 F1530
G1 X68.100 Y79.889 E0.3792
G1 X71.900 Y79.889 E0.5687
G1 X71.900 Y83.689 E0.7583
G1 X72.300 Y84.089 F3600
G92 E0.0000
G1 X67.700 Y84.089 E0.2295 F1260
G1 X67.700 Y79.489 E0.4590
G1 X71.700 Y79.489 E0.6586
G1 X71.700 Y76.694 E0.7980
G1 X70.557 Y76.906 E0.8561
G1 X69.714 Y77.002 E0.8984
G1 X68.867 Y77.034 E0.9406
G1 X68.021 Y77.002 E0.9829
G1 X67.179 Y76.906 E1.0252
G1 X66.347 Y76.746 E1.0675
G1 X65.529 Y76.525 E1.1097
G1 X64.835 Y76.279 E1.1464
G1 X72.300 Y76.279 E1.5188
G1 X72.300 Y84.089 E1.9085
G92 E0.0000
G1 E-2.0000 F1800
G1 X69.721 Y76.619 F3600
G1 E0.0000 F1800
G92 E0.0000
G1 X69.757 Y76.655 E0.0025 F1800
G1 X69.689 Y76.663 E0.0060
G1 X69.217 Y76.680 E0.0295
G1 X69.155 Y76.619 E0.0339
G1 X68.589 Y76.619 E0.0621
G1 X68.656 Y76.686 E0.0668
G1 X68.068 Y76.663 E0.0962
G1 X68.024 Y76.619 E0.0993
G92 E0.0000
G1 E-2.0000 F1800
G1 X71.069 Y80.229 F3600
G1 E0.0000 F1800
G92 E0.0000
G1 X71.560 Y80.721 E0.0347 F1440
G1 X71.560 Y81.286 E0.0629
G1 X70.503 Y80.229 E0.1375
G1 X69.937 Y80.229 E0.1657
G1 X71.560 Y81.852 E0.2802
G1 X71.560 Y82.418 E0.3084
G1 X69.372 Y80.229 E0.4628
G1 X68.806 Y80.229 E0.4911
G1 X71.560 Y82.984 E0.6854
G1 X71.560 Y83.349 E0.7036
G1 X71.360 Y83.349 E0.7136
G1 X68.440 Y80.429 E0.9196
G1 X68.440 Y80.995 E0.9479
G1 X70.794 Y83.349 E1.1140
G1 X70.229 Y83.349 E1.1422
G1 X68.440 Y81.561 E1.2684
G1 X68.440 Y82.126 E1.2966
G1 X69.663 Y83.349 E1.3829
G1 X69.097 Y83.349 E1.4111
G1 X68.440 Y82.692 E1.4575
G1 X68.440 Y83.258 E1.4857
G1 X68.532 Y83.349 E1.4922
G92 E0.0000
G1 E-2.0000 F1800
G1 X68.100 Y93.100 F3600
G1 E0.0000 F1800
G92 E0.0000
G1 X71.900 Y93.100 E0.1896 F1530
G1 X71.900 Y96.900 E0.3792
G1 X68.100 Y96.900 E0.5687
G1 X68.100 Y93.100 E0.7583
G1 X67.700 Y92.700 F3600
G92 E0.0000
G1 X71.700 Y92.700 E0.1996 F1260
G1 X71.700 Y89.904 E0.3390
G1 X70.557 Y90.116 E0.3971
G1 X69.714 Y90.212 E0.4394
G1 X68.867 Y90.244 E0.4816
G1 X68.021 Y90.212 E0.5239
G1 X67.179 Y90.116 E0.5662
G1 X66.347 Y89.957 E0.6085
G1 X65.529 Y89.735 E0.6507
G1 X64.835 Y89.489 E0.6874
G1 X72.300 Y89.489 E1.0599
G1 X72.300 Y97.300 E1.4495
G1 X67.700 Y97.300 E1.6790
G1 X67.700 Y92.700 E1.9085
G92 E0.0000
G1 E-2.0000 F1800
G1 X68.223 Y89.829 F3600
G1 E0.0000 F1800
G92 E0.0000
G1 X68.276 Y89.882 E0.0037 F1800
G1 X68.864 Y89.904 E0.0331
G1 X68.789 Y89.829 E0.0383
G1 X69.355 Y89.829 E0.0665
G1 X69.409 Y89.884 E0.0704
G1 X69.689 Y89.873 E0.0843
G1 X69.936 Y89.845 E0.0968
G1 X69.921 Y89.829 E0.0979
G92 E0.0000
G1 E-2.0000 F1800
G1 X71.268 Y93.440 F3600
G1 E0.0000 F1800
G92 E0.0000
G1 X71.560 Y93.732 E0.0206 F1440
G1 X71.560 Y94.297 E0.0488
G1 X70.703 Y93.440 E0.1093
G1 X70.137 Y93.440 E0.1375
G1 X71.560 Y94.863 E0.2379
G1 X71.560 Y95.429 E0.2661
G1 X69.571 Y93.440 E0.4064
G1 X69.006 Y93.440 E0.4346
G1 X71.560 Y95.994 E0.6149
G1 X71.560 Y96.560 E0.6431
G1 X68.440 Y93.440 E0.8632
G1 X68.440 Y94.006 E0.8914
G1 X70.994 Y96.560 E1.0717
G1 X70.429 Y96.560 E1.0999
G1 X68.440 Y94.571 E1.2402
G1 X68.440 Y95.137 E1.2684
G1 X69.863 Y96.560 E1.3688
G1 X69.297 Y96.560 E1.3970
G1 X68.440 Y95.703 E1.4575
G1 X68.440 Y96.268 E1.4857
G1 X68.732 Y96.560 E1.5063
G92 E0.0000
G1 E-2.0000 F1800
G1 X68.100 Y106.311 F3600
G1 E0.0000 F1800
G92 E0.0000
G1 X71.900 Y106.311 E0.1896 F1530
G1 X71.900 Y110.111 E0.3792
G1 X68.100 Y110.111 E0.5687
G1 X68.100 Y106.311 E0.7583
G1 X67.700 Y105.911 F3600
G92 E0.0000
G1 X71.700 Y105.911 E0.1996 F1260
G1 X71.700 Y103.115 E0.3390
G1 X70.557 Y103.327 E0.3971
G1 X69.714 Y103.423 E0.4394
G1 X68.867 Y103.455 E0.4816
G1 X68.021 Y103.423 E0.5239
G1 X67.179 Y103.327 E0.5662
G1 X66.347 Y103.168 E0.6085
G1 X65.529 Y102.946 E0.6507
G1 X64.835 Y102.700 E0.6874
G1 X72.300 Y102.700 E1.0599
G1 X72.300 Y110.511 E1.4495
G1 X67.700 Y110.511 E1.6790
G1 X67.700 Y105.911 E1.9085
G92 E0.0000
G1 E-2.0000 F1800
G1 X67.858 Y103.040 F3600
G1 E0.0000 F1800
G92 E0.0000
G1 X67.883 Y103.065 E0.0018 F1800
G1 X68.046 Y103.084 E0.0100
G1 X68.484 Y103.100 E0.0318
G1 X68.423 Y103.040 E0.0361
G1 X68.989 Y103.040 E0.0643
G1 X69.057 Y103.108 E0.0691
G1 X69.602 Y103.087 E0.0963
G1 X69.555 Y103.040 E0.0996
G92 E0.0000
G1 E-2.0000 F1800
G1 X71.468 Y106.651 F3600
G1 E0.0000 F1800
G92 E0.0000
G1 X71.560 Y106.742 E0.0065 F1440
G1 X71.560 Y107.308 E0.0347
G1 X70.903 Y106.651 E0.0811
G1 X70.337 Y106.651 E0.1093
G1 X71.560 Y107.874 E0.1956
G1 X71.560 Y108.439 E0.2238
G1 X69.771 Y106.651 E0.3500
G1 X69.206 Y106.651 E0.3782
G1 X71.560 Y109.005 E0.5444
G1 X71.560 Y109.571 E0.5726
G1 X68.640 Y106.651 E0.7786
G1 X68.440 Y106.651 E0.7886
G1 X68.440 Y107.016 E0.8068
G1 X71.194 Y109.771 E1.0012
G1 X70.628 Y109.771 E1.0294
G1 X68.440 Y107.582 E1.1838
G1 X68.440 Y108.148 E1.2120
G1 X70.063 Y109.771 E1.3265
G1 X69.497 Y109.771 E1.3547
G1 X68.440 Y108.713 E1.4293
G1 X68.440 Y109.279 E1.4575
G1 X68.931 Y109.771 E1.4922
G92 E0.0000
G1 E-2.0000 F1800
G1 X68.100 Y119.521 F3600
G1 E0.0000 F1800
G92 E0.0000
G1 X71.900 Y119.521 E0.1896 F1530
G1 X71.900 Y123.321 E0.3792
G1 X68.100 Y123.321 E0.5687
G1 X68.100 Y119.521 E0.7583
G1 X67.700 Y119.121 F3600
G92 E0.0000
G1 X71.700 Y119.121 E0.1996 F1260
G1 X71.700 Y116.325 E0.3390
G1 X70.557 Y116.538 E0.3971
G1 X69.714 Y116.634 E0.4394
G1 X68.867 Y116.666 E0.4816
G1 X68.021 Y116.634 E0.5239
G1 X67.179 Y116.538 E0.5662
G1 X66.347 Y116.378 E0.6085
G1 X65.529 Y116.156 E0.6507
G1 X64.835 Y115.911 E0.6874
G1 X72.300 Y115.911 E1.0599
G1 X72.300 Y123.721 E1.4495
G1 X67.700 Y123.721 E1.6790
G1 X67.700 Y119.121 E1.9085
G92 E0.0000
G1 E-2.0000 F1800
G1 X68.058 Y116.251 F3600
G1 E0.0000 F1800
G92 E0.0000
G1 X68.103 Y116.297 E0.0032 F1800
G1 X68.691 Y116.319 E0.0326
G1 X68.623 Y116.251 E0.0374
G1 X69.189 Y116.251 E0.0656
G1 X69.249 Y116.311 E0.0699
G1 X69.689 Y116.294 E0.0918
G1 X69.787 Y116.283 E0.0968
G1 X69.755 Y116.251 E0.0991
G92 E0.0000
G1 E-2.0000 F1800
G1 X71.102 Y119.861 F3600
G1 E0.0000 F1800
G92 E0.0000
G1 X71.560 Y120.319 E0.0323 F1440
G1 X71.560 Y120.884 E0.0605
G1 X70.537 Y119.861 E0.1327
G1 X69.971 Y119.861 E0.1609
G1 X71.560 Y121.450 E0.2730
G1 X71.560 Y122.016 E0.3012
G1 X69.405 Y119.861 E0.4533
G1 X68.840 Y119.861 E0.4815
G1 X71.560 Y122.582 E0.6734
G1 X71.560 Y122.981 E0.6934
G1 X71.394 Y122.981 E0.7016
G1 X68.440 Y120.027 E0.9101
G1 X68.440 Y120.593 E0.9383
G1 X70.828 Y122.981 E1.1068
G1 X70.263 Y122.981 E1.1350
G1 X68.440 Y121.159 E1.2636
G1 X68.440 Y121.724 E1.2918
G1 X69.697 Y122.981 E1.3805
G1 X69.131 Y122.981 E1.4087
G1 X68.440 Y122.290 E1.4575
G1 X68.440 Y122.856 E1.4857
G1 X68.566 Y122.981 E1.4946
G92 E0.0000
G1 E-2.0000 F1800
G1 X58.267 Y123.321 F3600
G1 E0.0000 F1800
G92 E0.0000
G1 X54.467 Y123.321 E0.1896 F1530
G1 X54.467 Y119.521 E0.3792
G1 X58.267 Y119.521 E0.5687
G1 X58.267 Y123.321 E0.7583
G1 X58.667 Y123.721 F3600
G92 E0.0000
G1 X54.067 Y123.721 E0.2295 F1260
G1 X54.067 Y119.121 E0.4590
G1 X58.067 Y119.121 E0.6586
G1 X58.067 Y116.325 E0.7980
G1 X56.924 Y116.538 E0.8561
G1 X56.082 Y116.634 E0.8983
G1 X55.235 Y116.666 E0.9406
G1 X54.388 Y116.634 E0.9829
G1 X53.546 Y116.538 E1.0252
G1 X52.714 Y116.378 E1.0675
G1 X51.896 Y116.156 E1.1097
G1 X51.203 Y115.911 E1.1464
G1 X58.667 Y115.911 E1.5189
G1 X58.667 Y123.721 E1.9085
G92 E0.0000
G1 E-2.0000 F1800
G1 X56.178 Y116.251 F3600
G1 E0.0000 F1800
G92 E0.0000
G1 X56.205 Y116.277 E0.0019 F1800
G1 X56.056 Y116.294 E0.0094
G1 X55.671 Y116.309 E0.0286
G1 X55.612 Y116.251 E0.0327
G1 X55.047 Y116.251 E0.0609
G1 X55.117 Y116.321 E0.0659
G1 X54.529 Y116.299 E0.0953
G1 X54.481 Y116.251 E0.0987
G92 E0.0000
G1 E-2.0000 F1800
G1 X57.526 Y119.861 F3600
G1 E0.0000 F1800
G92 E0.0000
G1 X57.927 Y120.263 E0.0283 F1440
G1 X57.927 Y120.828 E0.0565
G1 X56.960 Y119.861 E0.1248
G1 X56.395 Y119.861 E0.1530
G1 X57.927 Y121.394 E0.2612
G1 X57.927 Y121.960 E0.2894
G1 X55.829 Y119.861 E0.4374
G1 X55.263 Y119.861 E0.4657
G1 X57.927 Y122.525 E0.6536
G1 X57.927 Y122.981 E0.6764
G1 X57.818 Y122.981 E0.6819
G1 X54.807 Y119.971 E0.8942
G1 X54.807 Y120.537 E0.9225
G1 X57.252 Y122.981 E1.0949
G1 X56.686 Y122.981 E1.1231
G1 X54.807 Y121.103 E1.2557
G1 X54.807 Y121.668 E1.2839
G1 X56.121 Y122.981 E1.3766
G1 X55.555 Y122.981 E1.4048
G1 X54.807 Y122.234 E1.4575
G1 X54.807 Y122.800 E1.4857
G1 X54.989 Y122.981 E1.4986
G92 E0.0000
G1 E-2.0000 F1800
G1 X54.467 Y110.111 F3600
G1 E0.0000 F1800
G92 E0.0000
G1 X54.467 Y106.311 E0.1896 F1530
G1 X58.267 Y106.311 E0.3792
G1 X58.267 Y110.111 E0.5687
G1 X54.467 Y110.111 E0.7583
G1 X54.067 Y110.511 F3600
G92 E0.0000
G1 X54.067 Y105.911 E0.2295 F1260
G1 X58.067 Y105.911 E0.4291
G1 X58.067 Y103.115 E0.5685
G1 X56.924 Y103.327 E0.6266
G1 X56.082 Y103.423 E0.6689
G1 X55.235 Y103.455 E0.7111
G1 X54.388 Y103.423 E0.7534
G1 X53.546 Y103.327 E0.7957
G1 X52.714 Y103.168 E0.8380
G1 X51.896 Y102.946 E0.8802
G1 X51.203 Y102.700 E0.9169
G1 X58.667 Y102.700 E1.2894
G1 X58.667 Y110.511 E1.6790
G1 X54.067 Y110.511 E1.9085
G92 E0.0000
G1 E-2.0000 F1800
G1 X54.281 Y103.040 F3600
G1 E0.0000 F1800
G92 E0.0000
G1 X54.314 Y103.072 E0.0023 F1800
G1 X54.414 Y103.084 E0.0073
G1 X54.909 Y103.103 E0.0321
G1 X54.847 Y103.040 E0.0365
G1 X55.413 Y103.040 E0.0647
G1 X55.478 Y103.106 E0.0693
G1 X56.023 Y103.085 E0.0965
G1 X55.978 Y103.040 E0.0997
G92 E0.0000
G1 E-2.0000 F1800
G1 X57.892 Y106.651 F3600
G1 E0.0000 F1800
G92 E0.0000
G1 X57.927 Y106.686 E0.0025 F1440
G1 X57.927 Y107.252 E0.0307
G1 X57.326 Y106.651 E0.0732
G1 X56.760 Y106.651 E0.1014
G1 X57.927 Y107.818 E0.1837
G1 X57.927 Y108.383 E0.2119
G1 X56.195 Y106.651 E0.3342
G1 X55.629 Y106.651 E0.3624
G1 X57.927 Y108.949 E0.5246
G1 X57.927 Y109.515 E0.5528
G1 X55.063 Y106.651 E0.7549
G1 X54.807 Y106.651 E0.7676
G1 X54.807 Y106.960 E0.7831
G1 X57.618 Y109.771 E0.9814
G1 X57.052 Y109.771 E1.0096
G1 X54.807 Y107.526 E1.1680
G1 X54.807 Y108.092 E1.1962
G1 X56.486 Y109.771 E1.3146
G1 X55.921 Y109.771 E1.3429
G1 X54.807 Y108.657 E1.4214
G1 X54.807 Y109.223 E1.4496
G1 X55.355 Y109.771 E1.4883
G92 E0.0000
G1 E-2.0000 F1800
G1 X54.467 Y96.900 F3600
G1 E0.0000 F1800
G92 E0.0000
G1 X54.467 Y93.100 E0.1896 F1530
G1 X58.267 Y93.100 E0.3792
G1 X58.267 Y96.900 E0.5687
G1 X54.467 Y96.900 E0.7583
G1 X54.067 Y97.300 F3600
G92 E0.0000
G1 X54.067 Y92.700 E0.2295 F1260
G1 X58.067 Y92.700 E0.4291
G1 X58.067 Y89.904 E0.5685
G1 X56.924 Y90.116 E0.6266
G1 X56.082 Y90.212 E0.6689
G1 X55.235 Y90.244 E0.7111
G1 X54.388 Y90.212 E0.7534
G1 X53.546 Y90.116 E0.7957
G1 X52.714 Y89.957 E0.8380
G1 X51.896 Y89.735 E0.8802
G1 X51.203 Y89.489 E0.9169
G1 X58.667 Y89.489 E1.2894
G1 X58.667 Y97.300 E1.6790
G1 X54.067 Y97.300 E1.9085
G92 E0.0000
G1 E-2.0000 F1800
G1 X54.088 Y89.836 F3600
G1 E0.0000 F1800
G92 E0.0000
G1 X54.081 Y89.829 E0.0005 F1800
G1 X54.647 Y89.829 E0.0287
G1 X54.702 Y89.884 E0.0325
G1 X55.235 Y89.904 E0.0592
G1 X55.286 Y89.902 E0.0617
G1 X55.213 Y89.829 E0.0668
G1 X55.778 Y89.829 E0.0951
G1 X55.831 Y89.882 E0.0988
G1 X56.056 Y89.873 E0.1100
G1 X56.354 Y89.839 E0.1250
G1 X56.344 Y89.829 E0.1257
G92 E0.0000
G1 E-2.0000 F1800
G1 X57.692 Y93.440 F3600
G1 E0.0000 F1800
G92 E0.0000
G1 X57.927 Y93.675 E0.0166 F1440
G1 X57.927 Y94.241 E0.0448
G1 X57.126 Y93.440 E0.1014
G1 X56.561 Y93.440 E0.1296
G1 X57.927 Y94.807 E0.2260
G1 X57.927 Y95.373 E0.2542
G1 X55.995 Y93.440 E0.3906
G1 X55.429 Y93.440 E0.4188
G1 X57.927 Y95.938 E0.5951
G1 X57.927 Y96.504 E0.6233
G1 X54.864 Y93.440 E0.8395
G1 X54.807 Y93.440 E0.8423
G1 X54.807 Y93.950 E0.8677
G1 X57.418 Y96.560 E1.0519
G1 X56.852 Y96.560 E1.0801
G1 X54.807 Y94.515 E1.2244
G1 X54.807 Y95.081 E1.2526
G1 X56.287 Y96.560 E1.3569
G1 X55.721 Y96.560 E1.3852
G1 X54.807 Y95.647 E1.4496
G1 X54.807 Y96.212 E1.4778
G1 X55.155 Y96.560 E1.5024
G92 E0.0000
G1 E-2.0000 F1800
G1 X54.467 Y83.689 F3600
G1 E0.0000 F1800
G92 E0.0000
G1 X54.467 Y79.889 E0.1896 F1530
G1 X58.267 Y79.889 E0.3792
G1 X58.267 Y83.689 E0.5687
G1 X54.467 Y83.689 E0.7583
G1 X54.067 Y84.089 F3600
G92 E0.0000
G1 X54.067 Y79.489 E0.2295 F1260
G1 X58.067 Y79.489 E0.4291
G1 X58.067 Y76.694 E0.5685
G1 X56.924 Y76.906 E0.6266
G1 X56.082 Y77.002 E0.6689
G1 X55.235 Y77.034 E0.7111
G1 X54.388 Y77.002 E0.7534
G1 X53.546 Y76.906 E0.7957
G1 X52.714 Y76.746 E0.8380
G1 X51.896 Y76.525 E0.8802
G1 X51.203 Y76.279 E0.9169
G1 X58.667 Y76.279 E1.2894
G1 X58.667 Y84.089 E1.6790
G1 X54.067 Y84.089 E1.9085
G92 E0.0000
G1 E-2.0000 F1800
G1 X54.447 Y76.619 F3600
G1 E0.0000 F1800
G92 E0.0000
G1 X54.494 Y76.666 E0.0033 F1800
G1 X55.082 Y76.688 E0.0327
G1 X55.013 Y76.619 E0.0375
G1 X55.579 Y76.619 E0.0657
G1 X55.638 Y76.678 E0.0700
G1 X56.056 Y76.663 E0.0908
G1 X56.175 Y76.649 E0.0968
G1 X56.144 Y76.619 E0.0989
G92 E0.0000
G1 E-2.0000 F1800
G1 X57.492 Y80.229 F3600
G1 E0.0000 F1800
G92 E0.0000
G1 X57.927 Y80.665 E0.0307 F1440
G1 X57.927 Y81.230 E0.0589
G1 X56.926 Y80.229 E0.1296
G1 X56.361 Y80.229 E0.1578
G1 X57.927 Y81.796 E0.2683
G1 X57.927 Y82.362 E0.2966
G1 X55.795 Y80.229 E0.4470
G1 X55.229 Y80.229 E0.4752
G1 X57.927 Y82.927 E0.6656
G1 X57.927 Y83.349 E0.6866
G1 X57.784 Y83.349 E0.6938
G1 X54.807 Y80.373 E0.9038
G1 X54.807 Y80.939 E0.9320
G1 X57.218 Y83.349 E1.1021
G1 X56.652 Y83.349 E1.1303
G1 X54.807 Y81.505 E1.2605
G1 X54.807 Y82.070 E1.2887
G1 X56.087 Y83.349 E1.3790
G1 X55.521 Y83.349 E1.4072
G1 X54.807 Y82.636 E1.4575
G1 X54.807 Y83.202 E1.4857
G1 X54.955 Y83.349 E1.4962
G92 E0.0000
G1 E-2.0000 F1800
G1 X81.732 Y93.100 F3600
G1 E0.0000 F1800
G92 E0.0000
G1 X85.532 Y93.100 E0.1896 F1530
G1 X85.532 Y96.900 E0.3792
G1 X81.732 Y96.900 E0.5687
G1 X81.732 Y93.100 E0.7583
G1 X81.332 Y92.700 F3600
G92 E0.0000
G1 X85.332 Y92.700 E0.1996 F1260
G1 X85.332 Y89.904 E0.3390
G1 X84.189 Y90.116 E0.3971
G1 X83.347 Y90.212 E0.4394
G1 X82.500 Y90.244 E0.4816
G1 X81.653 Y90.212 E0.5239
G1 X80.811 Y90.116 E0.5662
G1 X79.979 Y89.957 E0.6085
G1 X79.161 Y89.735 E0.6507
G1 X78.468 Y89.489 E0.6874
G1 X85.933 Y89.489 E1.0599
G1 X85.933 Y97.300 E1.4495
G1 X81.332 Y97.300 E1.6790
G1 X81.332 Y92.700 E1.9085
G92 E0.0000
G1 E-2.0000 F1800
G1 X81.800 Y89.829 F3600
G1 E0.0000 F1800
G92 E0.0000
G1 X81.850 Y89.880 E0.0035 F1800
G1 X82.438 Y89.902 E0.0329
G1 X82.366 Y89.829 E0.0380
G1 X82.931 Y89.829 E0.0662
G1 X82.988 Y89.886 E0.0702
G1 X83.321 Y89.873 E0.0869
G1 X83.518 Y89.851 E0.0968
G1 X83.497 Y89.829 E0.0983
G92 E0.0000
G1 E-2.0000 F1800
G1 X84.845 Y93.440 F3600
G1 E0.0000 F1800
G92 E0.0000
G1 X85.192 Y93.788 E0.0245 F1440
G1 X85.192 Y94.353 E0.0527
G1 X84.279 Y93.440 E0.1172
G1 X83.714 Y93.440 E0.1454
G1 X85.192 Y94.919 E0.2498
G1 X85.192 Y95.485 E0.2780
G1 X83.148 Y93.440 E0.4222
G1 X82.582 Y93.440 E0.4505
G1 X85.192 Y96.050 E0.6346
G1 X85.192 Y96.560 E0.6601
G1 X85.136 Y96.560 E0.6629
G1 X82.072 Y93.496 E0.8790
G1 X82.072 Y94.062 E0.9073
G1 X84.571 Y96.560 E1.0835
G1 X84.005 Y96.560 E1.1118
G1 X82.072 Y94.627 E1.2481
G1 X82.072 Y95.193 E1.2763
G1 X83.439 Y96.560 E1.3728
G1 X82.874 Y96.560 E1.4010
G1 X82.072 Y95.759 E1.4575
G1 X82.072 Y96.324 E1.4857
G1 X82.308 Y96.560 E1.5024
G92 E0.0000
G1 E-2.0000 F1800
G1 X81.732 Y106.311 F3600
G1 E0.0000 F1800
G92 E0.0000
G1 X85.532 Y106.311 E0.1896 F1530
G1 X85.532 Y110.111 E0.3792
G1 X81.732 Y110.111 E0.5687
G1 X81.732 Y106.311 E0.7583
G1 X81.332 Y105.911 F3600
G92 E0.0000
G1 X85.332 Y105.911 E0.1996 F1260
G1 X85.332 Y103.115 E0.3390
G1 X84.189 Y103.327 E0.3971
G1 X83.347 Y103.423 E0.4394
G1 X82.500 Y103.455 E0.4816
G1 X81.653 Y103.423 E0.5239
G1 X80.811 Y103.327 E0.5662
G1 X79.979 Y103.168 E0.6085
G1 X79.161 Y102.946 E0.6507
G1 X78.468 Y102.700 E0.6874
G1 X85.933 Y102.700 E1.0599
G1 X85.933 Y110.511 E1.4495
G1 X81.332 Y110.511 E1.6790
G1 X81.332 Y105.911 E1.9085
G92 E0.0000
G1 E-2.0000 F1800
G1 X81.452 Y103.058 F3600
G1 E0.0000 F1800
G92 E0.0000
G1 X81.434 Y103.040 E0.0013 F1800
G1 X82.000 Y103.040 E0.0295
G1 X82.058 Y103.098 E0.0336
G1 X82.500 Y103.115 E0.0557
G1 X82.635 Y103.110 E0.0624
G1 X82.565 Y103.040 E0.0673
G1 X83.131 Y103.040 E0.0955
G1 X83.180 Y103.089 E0.0990
G1 X83.321 Y103.084 E0.1060
G1 X83.697 Y103.040 E0.1250
G92 E0.0000
G1 E-2.0000 F1800
G1 X85.045 Y106.651 F3600
G1 E0.0000 F1800
G92 E0.0000
G1 X85.192 Y106.798 E0.0104 F1440
G1 X85.192 Y107.364 E0.0386
G1 X84.479 Y106.651 E0.0890
G1 X83.913 Y106.651 E0.1172
G1 X85.192 Y107.930 E0.2075
G1 X85.192 Y108.495 E0.2357
G1 X83.348 Y106.651 E0.3658
G1 X82.782 Y106.651 E0.3941
G1 X85.192 Y109.061 E0.5641
G1 X85.192 Y109.627 E0.5924
G1 X82.216 Y106.651 E0.8023
G1 X82.072 Y106.651 E0.8095
G1 X82.072 Y107.072 E0.8306
G1 X84.771 Y109.771 E1.0209
G1 X84.205 Y109.771 E1.0492
G1 X82.072 Y107.638 E1.1996
G1 X82.072 Y108.204 E1.2278
G1 X83.639 Y109.771 E1.3384
G1 X83.074 Y109.771 E1.3666
G1 X82.072 Y108.770 E1.4372
G1 X82.072 Y109.335 E1.4655
G1 X82.508 Y109.771 E1.4962
G92 E0.0000
G1 E-2.0000 F1800
G1 X81.732 Y119.521 F3600
G1 E0.0000 F1800
G92 E0.0000
G1 X85.532 Y119.521 E0.1896 F1530
G1 X85.532 Y123.321 E0.3792
G1 X81.732 Y123.321 E0.5687
G1 X81.732 Y119.521 E0.7583
G1 X81.332 Y119.121 F3600
G92 E0.0000
G1 X85.332 Y119.121 E0.1996 F1260
G1 X85.332 Y116.325 E0.3390
G1 X84.189 Y116.538 E0.3971
G1 X83.347 Y116.634 E0.4394
G1 X82.500 Y116.666 E0.4816
G1 X81.653 Y116.634 E0.5239
G1 X80.811 Y116.538 E0.5662
G1 X79.979 Y116.378 E0.6085
G1 X79.161 Y116.156 E0.6507
G1 X78.468 Y115.911 E0.6874
G1 X85.933 Y115.911 E1.0599
G1 X85.933 Y123.721 E1.4495
G1 X81.332 Y123.721 E1.6790
G1 X81.332 Y119.121 E1.9085
G92 E0.0000
G1 E-2.0000 F1800
G1 X81.634 Y116.251 F3600
G1 E0.0000 F1800
G92 E0.0000
G1 X81.678 Y116.294 E0.0031 F1800
G1 X82.266 Y116.317 E0.0324
G1 X82.200 Y116.251 E0.0371
G1 X82.765 Y116.251 E0.0653
G1 X82.828 Y116.313 E0.0697
G1 X83.321 Y116.294 E0.0944
G1 X83.369 Y116.289 E0.0968
G1 X83.331 Y116.251 E0.0995
G92 E0.0000
G1 E-2.0000 F1800
G1 X84.679 Y119.861 F3600
G1 E0.0000 F1800
G92 E0.0000
G1 X85.192 Y120.375 E0.0362 F1440
G1 X85.192 Y120.941 E0.0645
G1 X84.113 Y119.861 E0.1406
G1 X83.548 Y119.861 E0.1688
G1 X85.192 Y121.506 E0.2849
G1 X85.192 Y122.072 E0.3131
G1 X82.982 Y119.861 E0.4691
G1 X82.416 Y119.861 E0.4973
G1 X85.192 Y122.638 E0.6932
G1 X85.192 Y122.981 E0.7103
G1 X84.970 Y122.981 E0.7214
G1 X82.072 Y120.083 E0.9259
G1 X82.072 Y120.649 E0.9541
G1 X84.405 Y122.981 E1.1187
G1 X83.839 Y122.981 E1.1469
G1 X82.072 Y121.215 E1.2715
G1 X82.072 Y121.780 E1.2998
G1 X83.273 Y122.981 E1.3845
G1 X82.708 Y122.981 E1.4127
G1 X82.072 Y122.346 E1.4575
G1 X82.072 Y122.912 E1.4857
G1 X82.142 Y122.981 E1.4907
G92 E0.0000
G1 E-2.0000 F1800
G1 X95.365 Y123.321 F3600
G1 E0.0000 F1800
G92 E0.0000
G1 X95.365 Y119.521 E0.1896 F1530
G1 X99.165 Y119.521 E0.3792
G1 X99.165 Y123.321 E0.5687
G1 X95.365 Y123.321 E0.7583
G1 X94.965 Y123.721 F3600
G92 E0.0000
G1 X94.965 Y119.121 E0.2295 F1260
G1 X98.965 Y119.121 E0.4291
G1 X98.965 Y116.325 E0.5685
G1 X97.822 Y116.538 E0.6266
G1 X96.979 Y116.634 E0.6689
G1 X96.132 Y116.666 E0.7111
G1 X95.286 Y116.634 E0.7534
G1 X94.444 Y116.538 E0.7957
G1 X93.612 Y116.378 E0.8380
G1 X92.794 Y116.156 E0.8802
G1 X92.100 Y115.911 E0.9169
G1 X99.565 Y115.911 E1.2894
G1 X99.565 Y123.721 E1.6790
G1 X94.965 Y123.721 E1.9085
G92 E0.0000
G1 E-2.0000 F1800
G1 X95.210 Y116.251 F3600
G1 E0.0000 F1800
G92 E0.0000
G1 X95.247 Y116.287 E0.0026 F1800
G1 X95.311 Y116.294 E0.0058
G1 X95.840 Y116.314 E0.0322
G1 X95.776 Y116.251 E0.0367
G1 X96.342 Y116.251 E0.0649
G1 X96.406 Y116.315 E0.0695
G1 X96.951 Y116.294 E0.0967
G1 X96.907 Y116.251 E0.0998
G92 E0.0000
G1 E-2.0000 F1800
G1 X98.821 Y119.861 F3600
G1 E0.0000 F1800
G92 E0.0000
G1 X98.825 Y119.865 E0.0003 F1440
G1 X98.825 Y120.431 E0.0285
G1 X98.255 Y119.861 E0.0687
G1 X97.690 Y119.861 E0.0969
G1 X98.825 Y120.997 E0.1770
G1 X98.825 Y121.562 E0.2052
G1 X97.124 Y119.861 E0.3253
G1 X96.558 Y119.861 E0.3535
G1 X98.825 Y122.128 E0.5134
G1 X98.825 Y122.694 E0.5416
G1 X95.993 Y119.861 E0.7415
G1 X95.705 Y119.861 E0.7558
G1 X95.705 Y120.139 E0.7697
G1 X98.547 Y122.981 E0.9702
G1 X97.981 Y122.981 E0.9984
G1 X95.705 Y120.705 E1.1590
G1 X95.705 Y121.271 E1.1872
G1 X97.416 Y122.981 E1.3079
G1 X96.850 Y122.981 E1.3362
G1 X95.705 Y121.836 E1.4169
G1 X95.705 Y122.402 E1.4452
G1 X96.284 Y122.981 E1.4860
G1 X95.719 Y122.981 E1.5142
G1 X95.705 Y122.968 E1.5152
G92 E0.0000
G1 E-2.0000 F1800
G1 X95.365 Y110.111 F3600
G1 E0.0000 F1800
G92 E0.0000
G1 X95.365 Y106.311 E0.1896 F1530
G1 X99.165 Y106.311 E0.3792
G1 X99.165 Y110.111 E0.5687
G1 X95.365 Y110.111 E0.7583
G1 X94.965 Y110.511 F3600
G92 E0.0000
G1 X94.965 Y105.911 E0.2295 F1260
G1 X98.965 Y105.911 E0.4291
G1 X98.965 Y103.115 E0.5685
G1 X97.822 Y103.327 E0.6266
G1 X96.979 Y103.423 E0.6689
G1 X96.132 Y103.455 E0.7111
G1 X95.286 Y103.423 E0.7534
G1 X94.444 Y103.327 E0.7957
G1 X93.612 Y103.168 E0.8380
G1 X92.794 Y102.946 E0.8802
G1 X92.100 Y102.700 E0.9169
G1 X99.565 Y102.700 E1.2894
G1 X99.565 Y110.511 E1.6790
G1 X94.965 Y110.511 E1.9085
G92 E0.0000
G1 E-2.0000 F1800
G1 X95.021 Y103.051 F3600
G1 E0.0000 F1800
G92 E0.0000
G1 X95.011 Y103.040 E0.0008 F1800
G1 X95.576 Y103.040 E0.0290
G1 X95.632 Y103.096 E0.0329
G1 X96.132 Y103.115 E0.0579
G1 X96.214 Y103.112 E0.0620
G1 X96.142 Y103.040 E0.0670
G1 X96.708 Y103.040 E0.0952
G1 X96.759 Y103.091 E0.0989
G1 X96.954 Y103.084 E0.1086
G1 X97.280 Y103.047 E0.1250
G1 X97.273 Y103.040 E0.1254
G92 E0.0000
G1 E-2.0000 F1800
G1 X98.621 Y106.651 F3600
G1 E0.0000 F1800
G92 E0.0000
G1 X98.825 Y106.854 E0.0144 F1440
G1 X98.825 Y107.420 E0.0426
G1 X98.056 Y106.651 E0.0969
G1 X97.490 Y106.651 E0.1251
G1 X98.825 Y107.986 E0.2193
G1 X98.825 Y108.551 E0.2475
G1 X96.924 Y106.651 E0.3817
G1 X96.358 Y106.651 E0.4099
G1 X98.825 Y109.117 E0.5839
G1 X98.825 Y109.683 E0.6121
G1 X95.793 Y106.651 E0.8261
G1 X95.705 Y106.651 E0.8305
G1 X95.705 Y107.129 E0.8543
G1 X98.347 Y109.771 E1.0407
G1 X97.781 Y109.771 E1.0689
G1 X95.705 Y107.694 E1.2154
G1 X95.705 Y108.260 E1.2437
G1 X97.216 Y109.771 E1.3502
G1 X96.650 Y109.771 E1.3785
G1 X95.705 Y108.826 E1.4451
G1 X95.705 Y109.391 E1.4734
G1 X96.084 Y109.771 E1.5001
G92 E0.0000
G1 E-2.0000 F1800
G1 X95.365 Y96.900 F3600
G1 E0.0000 F1800
G92 E0.0000
G1 X95.365 Y93.100 E0.1896 F1530
G1 X99.165 Y93.100 E0.3792
G1 X99.165 Y96.900 E0.5687
G1 X95.365 Y96.900 E0.7583
G1 X94.965 Y97.300 F3600
G92 E0.0000
G1 X94.965 Y92.700 E0.2295 F1260
G1 X98.965 Y92.700 E0.4291
G1 X98.965 Y89.904 E0.5685
G1 X97.822 Y90.116 E0.6266
G1 X96.979 Y90.212 E0.6689
G1 X96.132 Y90.244 E0.7111
G1 X95.286 Y90.212 E0.7534
G1 X94.444 Y90.116 E0.7957
G1 X93.612 Y89.957 E0.8380
G1 X92.794 Y89.735 E0.8802
G1 X92.100 Y89.489 E0.9169
G1 X99.565 Y89.489 E1.2894
G1 X99.565 Y97.300 E1.6790
G1 X94.965 Y97.300 E1.9085
G92 E0.0000
G1 E-2.0000 F1800
G1 X95.376 Y89.829 F3600
G1 E0.0000 F1800
G92 E0.0000
G1 X95.424 Y89.877 E0.0034 F1800
G1 X96.012 Y89.900 E0.0327
G1 X95.942 Y89.829 E0.0377
G1 X96.508 Y89.829 E0.0659
G1 X96.566 Y89.888 E0.0701
G1 X96.954 Y89.873 E0.0894
G1 X97.100 Y89.856 E0.0968
G1 X97.073 Y89.829 E0.0987
G92 E0.0000
G1 E-2.0000 F1800
G1 X98.421 Y93.440 F3600
G1 E0.0000 F1800
G92 E0.0000
G1 X98.825 Y93.844 E0.0285 F1440
G1 X98.825 Y94.409 E0.0567
G1 X97.856 Y93.440 E0.1251
G1 X97.290 Y93.440 E0.1533
G1 X98.825 Y94.975 E0.2616
G1 X98.825 Y95.541 E0.2898
G1 X96.724 Y93.440 E0.4381
G1 X96.159 Y93.440 E0.4663
G1 X98.825 Y96.106 E0.6544
G1 X98.825 Y96.560 E0.6770
G1 X98.713 Y96.560 E0.6826
G1 X95.705 Y93.552 E0.8949
G1 X95.705 Y94.118 E0.9231
G1 X98.147 Y96.560 E1.0954
G1 X97.582 Y96.560 E1.1236
G1 X95.705 Y94.683 E1.2560
G1 X95.705 Y95.249 E1.2842
G1 X97.016 Y96.560 E1.3767
G1 X96.450 Y96.560 E1.4049
G1 X95.705 Y95.815 E1.4575
G1 X95.705 Y96.381 E1.4857
G1 X95.884 Y96.560 E1.4984
G92 E0.0000
G1 E-2.0000 F1800
G1 X95.365 Y83.689 F3600
G1 E0.0000 F1800
G92 E0.0000
G1 X95.365 Y79.889 E0.1896 F1530
G1 X99.165 Y79.889 E0.3792
G1 X99.165 Y83.689 E0.5687
G1 X95.365 Y83.689 E0.7583
G1 X94.965 Y84.089 F3600
G92 E0.0000
G1 X94.965 Y79.489 E0.2295 F1260
G1 X98.965 Y79.489 E0.4291
G1 X98.965 Y76.694 E0.5685
G1 X97.822 Y76.906 E0.6266
G1 X96.979 Y77.002 E0.6689
G1 X96.132 Y77.034 E0.7111
G1 X95.286 Y77.002 E0.7534
G1 X94.444 Y76.906 E0.7957
G1 X93.612 Y76.746 E0.8380
G1 X92.794 Y76.525 E0.8802
G1 X92.100 Y76.279 E0.9169
G1 X99.565 Y76.279 E1.2894
G1 X99.565 Y84.089 E1.6790
G1 X94.965 Y84.089 E1.9085
G92 E0.0000
G1 E-2.0000 F1800
G1 X95.177 Y76.619 F3600
G1 E0.0000 F1800
G92 E0.0000
G1 X95.209 Y76.651 E0.0023 F1800
G1 X95.311 Y76.663 E0.0074
G1 X95.805 Y76.681 E0.0321
G1 X95.742 Y76.619 E0.0365
G1 X96.308 Y76.619 E0.0647
G1 X96.374 Y76.684 E0.0693
G1 X96.919 Y76.664 E0.0965
G1 X96.874 Y76.619 E0.0997
G92 E0.0000
G1 E-2.0000 F1800
G1 X98.787 Y80.229 F3600
G1 E0.0000 F1800
G92 E0.0000
G1 X98.825 Y80.267 E0.0027 F1440
G1 X98.825 Y80.833 E0.0309
G1 X98.221 Y80.229 E0.0735
G1 X97.656 Y80.229 E0.1017
G1 X98.825 Y81.399 E0.1842
G1 X98.825 Y81.964 E0.2124
G1 X97.090 Y80.229 E0.3348
G1 X96.524 Y80.229 E0.3630
G1 X98.825 Y82.530 E0.5254
G1 X98.825 Y83.096 E0.5536
G1 X95.959 Y80.229 E0.7558
G1 X95.705 Y80.229 E0.7685
G1 X95.705 Y80.541 E0.7840
G1 X98.513 Y83.349 E0.9822
G1 X97.947 Y83.349 E1.0104
G1 X95.705 Y81.107 E1.1686
G1 X95.705 Y81.673 E1.1968
G1 X97.382 Y83.349 E1.3151
G1 X96.816 Y83.349 E1.3433
G1 X95.705 Y82.238 E1.4217
G1 X95.705 Y82.804 E1.4499
G1 X96.250 Y83.349 E1.4884
G92 E0.0000
G1 E-2.0000 F1800
G1 X85.532 Y83.689 F3600
G1 E0.0000 F1800
G92 E0.0000
G1 X81.732 Y83.689 E0.1896 F1530
G1 X81.732 Y79.889 E0.3792
G1 X85.532 Y79.889 E0.5687
G1 X85.532 Y83.689 E0.7583
G1 X85.933 Y84.089 F3600
G92 E0.0000
G1 X81.332 Y84.089 E0.2295 F1260
G1 X81.332 Y79.489 E0.4590
G1 X85.332 Y79.489 E0.6586
G1 X85.332 Y76.694 E0.7980
G1 X84.189 Y76.906 E0.8561
G1 X83.347 Y77.002 E0.8984
G1 X82.500 Y77.034 E0.9406
G1 X81.653 Y77.002 E0.9829
G1 X80.811 Y76.906 E1.0252
G1 X79.979 Y76.746 E1.0675
G1 X79.161 Y76.525 E1.1097
G1 X78.468 Y76.279 E1.1464
G1 X85.933 Y76.279 E1.5188
G1 X85.933 Y84.089 E1.9085
G92 E0.0000
G1 E-2.0000 F1800
G1 X83.297 Y76.619 F3600
G1 E0.0000 F1800
G92 E0.0000
G1 X83.339 Y76.660 E0.0029 F1800
G1 X83.321 Y76.663 E0.0038
G1 X82.795 Y76.682 E0.0301
G1 X82.731 Y76.619 E0.0346
G1 X82.166 Y76.619 E0.0628
G1 X82.230 Y76.683 E0.0674
G1 X81.679 Y76.663 E0.0949
G1 X81.639 Y76.658 E0.0969
G1 X81.600 Y76.619 E0.0997
G92 E0.0000
G1 E-2.0000 F1800
G1 X84.645 Y80.229 F3600
G1 E0.0000 F1800
G92 E0.0000
G1 X85.192 Y80.777 E0.0386 F1440
G1 X85.192 Y81.343 E0.0668
G1 X84.079 Y80.229 E0.1454
G1 X83.514 Y80.229 E0.1736
G1 X85.192 Y81.908 E0.2921
G1 X85.192 Y82.474 E0.3203
G1 X82.948 Y80.229 E0.4786
G1 X82.382 Y80.229 E0.5069
G1 X85.192 Y83.040 E0.7051
G1 X85.192 Y83.349 E0.7206
G1 X84.937 Y83.349 E0.7334
G1 X82.072 Y80.485 E0.9354
G1 X82.072 Y81.051 E0.9637
G1 X84.371 Y83.349 E1.1258
G1 X83.805 Y83.349 E1.1541
G1 X82.072 Y81.617 E1.2763
G1 X82.072 Y82.182 E1.3045
G1 X83.240 Y83.349 E1.3869
G1 X82.674 Y83.349 E1.4151
G1 X82.072 Y82.748 E1.4575
G1 X82.072 Y83.314 E1.4857
G1 X82.108 Y83.349 E1.4883
G92 E0.0000
G1 E-2.0000 F1800
G1 Z2.910 F2400
G1 X81.732 Y83.689 F3600
G1 E0.0000 F1800
G92 E0.0000
G1 X81.732 Y79.889 E0.1896 F1530
G1 X85.532 Y79.889 E0.3792
G1 X85.532 Y83.689 E0.5687
G1 X81.732 Y83.689 E0.7583
G1 X81.332 Y84.089 F3600
G92 E0.0000
G1 X81.332 Y79.489 E0.2295 F1260
G1 X85.332 Y79.489 E0.4291
G1 X85.332 Y76.694 E0.5685
G1 X84.189 Y76.906 E0.6266
G1 X83.347 Y77.002 E0.6689
G1 X82.500 Y77.034 E0.7111
G1 X81.653 Y77.002 E0.7534
G1 X80.811 Y76.906 E0.7957
G1 X79.979 Y76.746 E0.8380
G1 X79.161 Y76.525 E0.8802
G1 X78.468 Y76.279 E0.9169
G1 X85.933 Y76.279 E1.2894
G1 X85.933 Y84.089 E1.6790
G1 X81.332 Y84.089 E1.9085
G92 E0.0000
G1 E-2.0000 F1800
G1 X81.399 Y76.631 F3600
G1 E0.0000 F1800
G92 E0.0000
G1 X81.411 Y76.619 E0.0008 F1800
G1 X81.976 Y76.619 E0.0291
G1 X81.923 Y76.672 E0.0328
G1 X82.468 Y76.692 E0.0600
G1 X82.542 Y76.619 E0.0652
G1 X83.108 Y76.619 E0.0934
G1 X83.054 Y76.673 E0.0972
G1 X83.321 Y76.663 E0.1106
G1 X83.669 Y76.623 E0.1281
G1 X83.673 Y76.619 E0.1283
G92 E0.0000
G1 E-2.0000 F1800
G1 X95.365 Y79.889 F3600
G1 E0.0000 F1800
G92 E0.0000
G1 X99.165 Y79.889 E0.1896 F1530
G1 X99.165 Y83.689 E0.3792
G1 X95.365 Y83.689 E0.5687
G1 X95.365 Y79.889 E0.7583
G1 X94.965 Y79.489 F3600
G92 E0.0000
G1 X98.965 Y79.489 E0.1996 F1260
G1 X98.965 Y76.694 E0.3390
G1 X97.822 Y76.906 E0.3971
G1 X96.979 Y77.002 E0.4394
G1 X96.132 Y77.034 E0.4816
G1 X95.286 Y77.002 E0.5239
G1 X94.444 Y76.906 E0.5662
G1 X93.612 Y76.746 E0.6085
G1 X92.794 Y76.525 E0.6507
G1 X92.100 Y76.279 E0.6874
G1 X99.565 Y76.279 E1.0599
G1 X99.565 Y84.089 E1.4495
G1 X94.965 Y84.089 E1.6790
G1 X94.965 Y79.489 E1.9085
G92 E0.0000
G1 E-2.0000 F1800
G1 X94.981 Y76.625 F3600
G1 E0.0000 F1800
G92 E0.0000
G1 X94.987 Y76.619 E0.0004 F1800
G1 X95.553 Y76.619 E0.0287
G1 X95.502 Y76.670 E0.0322
G1 X96.047 Y76.690 E0.0595
G1 X96.119 Y76.619 E0.0645
G1 X96.684 Y76.619 E0.0927
G1 X96.628 Y76.675 E0.0967
G1 X96.954 Y76.663 E0.1129
G1 X97.239 Y76.630 E0.1273
G1 X97.250 Y76.619 E0.1280
G92 E0.0000
G1 E-2.0000 F1800
G1 X95.365 Y93.100 F3600
G1 E0.0000 F1800
G92 E0.0000
G1 X99.165 Y93.100 E0.1896 F1530
G1 X99.165 Y96.900 E0.3792
G1 X95.365 Y96.900 E0.5687
G1 X95.365 Y93.100 E0.7583
G1 X94.965 Y92.700 F3600
G92 E0.0000
G1 X98.965 Y92.700 E0.1996 F1260
G1 X98.965 Y89.904 E0.3390
G1 X97.822 Y90.116 E0.3971
G1 X96.979 Y90.212 E0.4394
G1 X96.132 Y90.244 E0.4816
G1 X95.286 Y90.212 E0.5239
G1 X94.444 Y90.116 E0.5662
G1 X93.612 Y89.957 E0.6085
G1 X92.794 Y89.735 E0.6507
G1 X92.100 Y89.489 E0.6874
G1 X99.565 Y89.489 E1.0599
G1 X99.565 Y97.300 E1.4495
G1 X94.965 Y97.300 E1.6790
G1 X94.965 Y92.700 E1.9085
G92 E0.0000
G1 E-2.0000 F1800
G1 X95.309 Y89.873 F3600
G1 E0.0000 F1800
G92 E0.0000
G1 X95.353 Y89.829 E0.0031 F1800
G1 X95.919 Y89.829 E0.0313
G1 X95.854 Y89.894 E0.0358
G1 X96.132 Y89.904 E0.0497
G1 X96.420 Y89.893 E0.0641
G1 X96.484 Y89.829 E0.0686
G1 X97.050 Y89.829 E0.0968
G1 X97.013 Y89.866 E0.0994
G92 E0.0000
G1 E-2.0000 F1800
G1 X85.532 Y93.100 F3600
G1 E0.0000 F1800
G92 E0.0000
G1 X85.532 Y96.900 E0.1896 F1530
G1 X81.732 Y96.900 E0.3792
G1 X81.732 Y93.100 E0.5687
G1 X85.532 Y93.100 E0.7583
G1 X85.332 Y92.700 F3600
G92 E0.0000
G1 X85.332 Y89.904 E0.1395 F1260
G1 X84.189 Y90.116 E0.1975
G1 X83.347 Y90.212 E0.2398
G1 X82.500 Y90.244 E0.2821
G1 X81.653 Y90.212 E0.3244
G1 X80.811 Y90.116 E0.3666
G1 X79.979 Y89.957 E0.4089
G1 X79.161 Y89.735 E0.4512
G1 X78.468 Y89.489 E0.4879
G1 X85.933 Y89.489 E0.8603
G1 X85.933 Y97.300 E1.2500
G1 X81.332 Y97.300 E1.4795
G1 X81.332 Y92.700 E1.7090
G1 X85.332 Y92.700 E1.9085
G92 E0.0000
G1 E-2.0000 F1800
G1 X83.444 Y89.859 F3600
G1 E0.0000 F1800
G92 E0.0000
G1 X83.474 Y89.829 E0.0021 F1800
G1 X82.908 Y89.829 E0.0303
G1 X82.846 Y89.891 E0.0347
G1 X82.500 Y89.904 E0.0520
G1 X82.276 Y89.896 E0.0632
G1 X82.342 Y89.829 E0.0678
G1 X81.777 Y89.829 E0.0961
G1 X81.731 Y89.875 E0.0993
G92 E0.0000
G1 E-2.0000 F1800
G1 X71.900 Y93.100 F3600
G1 E0.0000 F1800
G92 E0.0000
G1 X71.900 Y96.900 E0.1896 F1530
G1 X68.100 Y96.900 E0.3792
G1 X68.100 Y93.100 E0.5687
G1 X71.900 Y93.100 E0.7583
G1 X71.700 Y92.700 F3600
G92 E0.0000
G1 X71.700 Y89.904 E0.1395 F1260
G1 X70.557 Y90.116 E0.1975
G1 X69.714 Y90.212 E0.2398
G1 X68.867 Y90.244 E0.2821
G1 X68.021 Y90.212 E0.3244
G1 X67.179 Y90.116 E0.3666
G1 X66.347 Y89.957 E0.4089
G1 X65.529 Y89.735 E0.4512
G1 X64.835 Y89.489 E0.4879
G1 X72.300 Y89.489 E0.8603
G1 X72.300 Y97.300 E1.2500
G1 X67.700 Y97.300 E1.4795
G1 X67.700 Y92.700 E1.7090
G1 X71.700 Y92.700 E1.9085
G92 E0.0000
G1 E-2.0000 F1800
G1 X69.875 Y89.852 F3600
G1 E0.0000 F1800
G92 E0.0000
G1 X69.897 Y89.829 E0.0016 F1800
G1 X69.331 Y89.829 E0.0298
G1 X69.272 Y89.889 E0.0340
G1 X68.867 Y89.904 E0.0542
G1 X68.697 Y89.898 E0.0627
G1 X68.766 Y89.829 E0.0675
G1 X68.200 Y89.829 E0.0958
G1 X68.152 Y89.877 E0.0991
G92 E0.0000
G1 E-2.0000 F1800
G1 X68.100 Y83.689 F3600
G1 E0.0000 F1800
G92 E0.0000
G1 X68.100 Y79.889 E0.1896 F1530
G1 X71.900 Y79.889 E0.3792
G1 X71.900 Y83.689 E0.5687
G1 X68.100 Y83.689 E0.7583
G1 X67.700 Y84.089 F3600
G92 E0.0000
G1 X67.700 Y79.489 E0.2295 F1260
G1 X71.700 Y79.489 E0.4291
G1 X71.700 Y76.694 E0.5685
G1 X70.557 Y76.906 E0.6266
G1 X69.714 Y77.002 E0.6689
G1 X68.867 Y77.034 E0.7111
G1 X68.021 Y77.002 E0.7534
G1 X67.179 Y76.906 E0.7957
G1 X66.347 Y76.746 E0.8380
G1 X65.529 Y76.525 E0.8802
G1 X64.835 Y76.279 E0.9169
G1 X72.300 Y76.279 E1.2894
G1 X72.300 Y84.089 E1.6790
G1 X67.700 Y84.089 E1.9085
G92 E0.0000
G1 E-2.0000 F1800
G1 X67.817 Y76.636 F3600
G1 E0.0000 F1800
G92 E0.0000
G1 X67.834 Y76.619 E0.0012 F1800
G1 X68.400 Y76.619 E0.0295
G1 X68.345 Y76.674 E0.0333
G1 X68.867 Y76.694 E0.0594
G1 X68.892 Y76.693 E0.0606
G1 X68.966 Y76.619 E0.0659
G1 X69.531 Y76.619 E0.0941
G1 X69.480 Y76.670 E0.0977
G92 E0.0000
G1 E-2.0000 F1800
G1 X58.267 Y79.889 F3600
G1 E0.0000 F1800
G92 E0.0000
G1 X58.267 Y83.689 E0.1896 F1530
G1 X54.467 Y83.689 E0.3792
G1 X54.467 Y79.889 E0.5687
G1 X58.267 Y79.889 E0.7583
G1 X58.067 Y79.489 F3600
G92 E0.0000
G1 X58.067 Y76.694 E0.1395 F1260
G1 X56.924 Y76.906 E0.1975
G1 X56.082 Y77.002 E0.2398
G1 X55.235 Y77.034 E0.2821
G1 X54.388 Y77.002 E0.3244
G1 X53.546 Y76.906 E0.3666
G1 X52.714 Y76.746 E0.4089
G1 X51.896 Y76.525 E0.4512
G1 X51.203 Y76.279 E0.4879
G1 X58.667 Y76.279 E0.8603
G1 X58.667 Y84.089 E1.2500
G1 X54.067 Y84.089 E1.4795
G1 X54.067 Y79.489 E1.7090
G1 X58.067 Y79.489 E1.9085
G92 E0.0000
G1 E-2.0000 F1800
G1 X55.905 Y76.668 F3600
G1 E0.0000 F1800
G92 E0.0000
G1 X55.955 Y76.619 E0.0035 F1800
G1 X55.389 Y76.619 E0.0317
G1 X55.317 Y76.690 E0.0368
G1 X55.235 Y76.694 E0.0409
G1 X54.766 Y76.676 E0.0643
G1 X54.824 Y76.619 E0.0683
G1 X54.258 Y76.619 E0.0965
G1 X54.234 Y76.642 E0.0982
G92 E0.0000
G1 E-2.0000 F1800
G1 X54.467 Y93.100 F3600
G1 E0.0000 F1800
G92 E0.0000
G1 X58.267 Y93.100 E0.1896 F1530
G1 X58.267 Y96.900 E0.3792
G1 X54.467 Y96.900 E0.5687
G1 X54.467 Y93.100 E0.7583
G1 X54.067 Y92.700 F3600
G92 E0.0000
G1 X58.067 Y92.700 E0.1996 F1260
G1 X58.067 Y89.904 E0.3390
G1 X56.924 Y90.116 E0.3971
G1 X56.082 Y90.212 E0.4394
G1 X55.235 Y90.244 E0.4816
G1 X54.388 Y90.212 E0.5239
G1 X53.546 Y90.116 E0.5662
G1 X52.714 Y89.957 E0.6085
G1 X51.896 Y89.735 E0.6507
G1 X51.203 Y89.489 E0.6874
G1 X58.667 Y89.489 E1.0599
G1 X58.667 Y97.300 E1.4495
G1 X54.067 Y97.300 E1.6790
G1 X54.067 Y92.700 E1.9085
G92 E0.0000
G1 E-2.0000 F1800
G1 X54.055 Y89.832 F3600
G1 E0.0000 F1800
G92 E0.0000
G1 X54.624 Y89.829 E0.0284 F1800
G1 X54.574 Y89.879 E0.0319
G1 X55.119 Y89.900 E0.0592
G1 X55.189 Y89.829 E0.0641
G1 X55.755 Y89.829 E0.0923
G1 X55.698 Y89.887 E0.0964
G1 X56.056 Y89.873 E0.1143
G1 X56.305 Y89.845 E0.1268
G1 X56.321 Y89.829 E0.1279
G92 E0.0000
G1 E-2.0000 F1800
G1 X54.467 Y106.311 F3600
G1 E0.0000 F1800
G92 E0.0000
G1 X58.267 Y106.311 E0.1896 F1530
G1 X58.267 Y110.111 E0.3792
G1 X54.467 Y110.111 E0.5687
G1 X54.467 Y106.311 E0.7583
G1 X54.067 Y105.911 F3600
G92 E0.0000
G1 X58.067 Y105.911 E0.1996 F1260
G1 X58.067 Y103.115 E0.3390
G1 X56.924 Y103.327 E0.3971
G1 X56.082 Y103.423 E0.4394
G1 X55.235 Y103.455 E0.4816
G1 X54.388 Y103.423 E0.5239
G1 X53.546 Y103.327 E0.5662
G1 X52.714 Y103.168 E0.6085
G1 X51.896 Y102.946 E0.6507
G1 X51.203 Y102.700 E0.6874
G1 X58.667 Y102.700 E1.0599
G1 X58.667 Y110.511 E1.4495
G1 X54.067 Y110.511 E1.6790
G1 X54.067 Y105.911 E1.9085
G92 E0.0000
G1 E-2.0000 F1800
G1 X54.383 Y103.080 F3600
G1 E0.0000 F1800
G92 E0.0000
G1 X54.424 Y103.040 E0.0028 F1800
G1 X54.989 Y103.040 E0.0311
G1 X54.926 Y103.103 E0.0355
G1 X55.235 Y103.115 E0.0509
G1 X55.490 Y103.105 E0.0637
G1 X55.555 Y103.040 E0.0683
G1 X56.121 Y103.040 E0.0965
G1 X56.080 Y103.081 E0.0994
G92 E0.0000
G1 E-2.0000 F1800
G1 X68.100 Y106.311 F3600
G1 E0.0000 F1800
G92 E0.0000
G1 X71.900 Y106.311 E0.1896 F1530
G1 X71.900 Y110.111 E0.3792
G1 X68.100 Y110.111 E0.5687
G1 X68.100 Y106.311 E0.7583
G1 X67.700 Y105.911 F3600
G92 E0.0000
G1 X71.700 Y105.911 E0.1996 F1260
G1 X71.700 Y103.115 E0.3390
G1 X70.557 Y103.327 E0.3971
G1 X69.714 Y103.423 E0.4394
G1 X68.867 Y103.455 E0.4816
G1 X68.021 Y103.423 E0.5239
G1 X67.179 Y103.327 E0.5662
G1 X66.347 Y103.168 E0.6085
G1 X65.529 Y102.946 E0.6507
G1 X64.835 Y102.700 E0.6874
G1 X72.300 Y102.700 E1.0599
G1 X72.300 Y110.511 E1.4495
G1 X67.700 Y110.511 E1.6790
G1 X67.700 Y105.911 E1.9085
G92 E0.0000
G1 E-2.0000 F1800
G1 X67.966 Y103.075 F3600
G1 E0.0000 F1800
G92 E0.0000
G1 X68.000 Y103.040 E0.0024 F1800
G1 X68.566 Y103.040 E0.0307
G1 X68.505 Y103.101 E0.0350
G1 X68.867 Y103.115 E0.0531
G1 X69.064 Y103.107 E0.0629
G1 X69.132 Y103.040 E0.0677
G1 X69.697 Y103.040 E0.0959
G1 X69.652 Y103.085 E0.0991
G92 E0.0000
G1 E-2.0000 F1800
G1 X81.732 Y106.311 F3600
G1 E0.0000 F1800
G92 E0.0000
G1 X85.532 Y106.311 E0.1896 F1530
G1 X85.532 Y110.111 E0.3792
G1 X81.732 Y110.111 E0.5687
G1 X81.732 Y106.311 E0.7583
G1 X81.332 Y105.911 F3600
G92 E0.0000
G1 X85.332 Y105.911 E0.1996 F1260
G1 X85.332 Y103.115 E0.3390
G1 X84.189 Y103.327 E0.3971
G1 X83.347 Y103.423 E0.4394
G1 X82.500 Y103.455 E0.4816
G1 X81.653 Y103.423 E0.5239
G1 X80.811 Y103.327 E0.5662
G1 X79.979 Y103.168 E0.6085
G1 X79.161 Y102.946 E0.6507
G1 X78.468 Y102.700 E0.6874
G1 X85.933 Y102.700 E1.0599
G1 X85.933 Y110.511 E1.4495
G1 X81.332 Y110.511 E1.6790
G1 X81.332 Y105.911 E1.9085
G92 E0.0000
G1 E-2.0000 F1800
G1 X81.548 Y103.069 F3600
G1 E0.0000 F1800
G92 E0.0000
G1 X81.577 Y103.040 E0.0020 F1800
G1 X82.142 Y103.040 E0.0303
G1 X82.083 Y103.099 E0.0344
G1 X82.500 Y103.115 E0.0552
G1 X82.638 Y103.110 E0.0621
G1 X82.708 Y103.040 E0.0671
G1 X83.274 Y103.040 E0.0953
G1 X83.226 Y103.087 E0.0986
G92 E0.0000
G1 E-2.0000 F1800
G1 X95.365 Y106.311 F3600
G1 E0.0000 F1800
G92 E0.0000
G1 X99.165 Y106.311 E0.1896 F1530
G1 X99.165 Y110.111 E0.3792
G1 X95.365 Y110.111 E0.5687
G1 X95.365 Y106.311 E0.7583
G1 X94.965 Y105.911 F3600
G92 E0.0000
G1 X98.965 Y105.911 E0.1996 F1260
G1 X98.965 Y103.115 E0.3390
G1 X97.822 Y103.327 E0.3971
G1 X96.979 Y103.423 E0.4394
G1 X96.132 Y103.455 E0.4816
G1 X95.286 Y103.423 E0.5239
G1 X94.444 Y103.327 E0.5662
G1 X93.612 Y103.168 E0.6085
G1 X92.794 Y102.946 E0.6507
G1 X92.100 Y102.700 E0.6874
G1 X99.565 Y102.700 E1.0599
G1 X99.565 Y110.511 E1.4495
G1 X94.965 Y110.511 E1.6790
G1 X94.965 Y105.911 E1.9085
G92 E0.0000
G1 E-2.0000 F1800
G1 X95.130 Y103.063 F3600
G1 E0.0000 F1800
G92 E0.0000
G1 X95.153 Y103.040 E0.0016 F1800
G1 X95.719 Y103.040 E0.0299
G1 X95.662 Y103.097 E0.0339
G1 X96.132 Y103.115 E0.0574
G1 X96.213 Y103.112 E0.0614
G1 X96.285 Y103.040 E0.0664
G1 X96.850 Y103.040 E0.0947
G1 X96.801 Y103.090 E0.0982
G92 E0.0000
G1 E-2.0000 F1800
G1 X95.365 Y119.521 F3600
G1 E0.0000 F1800
G92 E0.0000
G1 X99.165 Y119.521 E0.1896 F1530
G1 X99.165 Y123.321 E0.3792
G1 X95.365 Y123.321 E0.5687
G1 X95.365 Y119.521 E0.7583
G1 X94.965 Y119.121 F3600
G92 E0.0000
G1 X98.965 Y119.121 E0.1996 F1260
G1 X98.965 Y116.325 E0.3390
G1 X97.822 Y116.538 E0.3971
G1 X96.979 Y116.634 E0.4394
G1 X96.132 Y116.666 E0.4816
G1 X95.286 Y116.634 E0.5239
G1 X94.444 Y116.538 E0.5662
G1 X93.612 Y116.378 E0.6085
G1 X92.794 Y116.156 E0.6507
G1 X92.100 Y115.911 E0.6874
G1 X99.565 Y115.911 E1.0599
G1 X99.565 Y123.721 E1.4495
G1 X94.965 Y123.721 E1.6790
G1 X94.965 Y119.121 E1.9085
G92 E0.0000
G1 E-2.0000 F1800
G1 X94.951 Y116.253 F3600
G1 E0.0000 F1800
G92 E0.0000
G1 X95.519 Y116.251 E0.0284 F1800
G1 X95.469 Y116.300 E0.0319
G1 X96.014 Y116.321 E0.0591
G1 X96.085 Y116.251 E0.0641
G1 X96.650 Y116.251 E0.0923
G1 X96.593 Y116.308 E0.0964
G1 X96.954 Y116.294 E0.1144
G1 X97.200 Y116.266 E0.1268
G1 X97.216 Y116.251 E0.1279
G92 E0.0000
G1 E-2.0000 F1800
G1 X85.532 Y119.521 F3600
G1 E0.0000 F1800
G92 E0.0000
G1 X85.532 Y123.321 E0.1896 F1530
G1 X81.732 Y123.321 E0.3792
G1 X81.732 Y119.521 E0.5687
